;(****Build and Slicing Parameters****)
;(Pix per mm X            = 11.16279 px/mm )
;(Pix per mm Y            = 11.19171 px/mm )
;(X Resolution            = 3840 )
;(Y Resolution            = 2160 )
;(Layer Thickness         = 0.05000 mm )
;(Layer Time              = 8000 ms )
;(Render Outlines         = False
;(Outline Width Inset     = 2
;(Outline Width Outset    = 0
;(Bottom Layers Time      = 5000 ms )
;(Number of Bottom Layers = 7 )
;(Blanking Layer Time     = 7200 ms )
;(Build Direction         = Bottom_Up)
;(Lift Distance           = 7 mm )
;(Slide/Tilt Value        = 1)
;(Anti Aliasing           = False)
;(Use Mainlift GCode Tab  = False)
;(Anti Aliasing Value     = 8 )
;(Z Lift Feed Rate        = 150.00000 mm/s )
;(Z Bottom Lift Feed Rate = 150.00000 mm/s )
;(Z Lift Retract Rate     = 150.00000 mm/s )
;(Flip X                  = False)
;(Flip Y                  = False)
;Number of Slices        =  638
;(****Machine Configuration ******)
;(Platform X Size         = 344mm )
;(Platform Y Size         = 193mm )
;(Platform Z Size         = 300mm )
;(Max X Feedrate          = 100mm/s )
;(Max Y Feedrate          = 100mm/s )
;(Max Z Feedrate          = 100mm/s )
;(Machine Type            = UV_DLP)
;********** Header Start ********
;Here you can set any G or M-Code which should be executed BEFORE the build process
G21 ;Set units to be mm
G91 ;Relative Positioning
M17 ;Enable motors
;********** Header End **********
;********** Pre-Slice Start ********
;Set up any GCode here to be executed before a lift
M106 S25
;********** Pre-Slice End **********
;<Slice> 0 
;<Delay> 5000 
;<Slice> Blank 
;********** Lift Sequence ********
M107
G1 X1.0 Z7.0 F150.0
G1 X-1.0 Z-6.95 F150.0
;<Delay> 7200
;********** Lift Sequence **********
;********** Pre-Slice Start ********
;Set up any GCode here to be executed before a lift
M106 S25
;********** Pre-Slice End **********
;<Slice> 1 
;<Delay> 5000 
;<Slice> Blank 
;********** Lift Sequence ********
M107
G1 X1.0 Z7.0 F150.0
G1 X-1.0 Z-6.95 F150.0
;<Delay> 7200
;********** Lift Sequence **********
;********** Pre-Slice Start ********
;Set up any GCode here to be executed before a lift
M106 S25
;********** Pre-Slice End **********
;<Slice> 2 
;<Delay> 5000 
;<Slice> Blank 
;********** Lift Sequence ********
M107
G1 X1.0 Z7.0 F150.0
G1 X-1.0 Z-6.95 F150.0
;<Delay> 7200
;********** Lift Sequence **********
;********** Pre-Slice Start ********
;Set up any GCode here to be executed before a lift
M106 S25
;********** Pre-Slice End **********
;<Slice> 3 
;<Delay> 5000 
;<Slice> Blank 
;********** Lift Sequence ********
M107
G1 X1.0 Z7.0 F150.0
G1 X-1.0 Z-6.95 F150.0
;<Delay> 7200
;********** Lift Sequence **********
;********** Pre-Slice Start ********
;Set up any GCode here to be executed before a lift
M106 S25
;********** Pre-Slice End **********
;<Slice> 4 
;<Delay> 5000 
;<Slice> Blank 
;********** Lift Sequence ********
M107
G1 X1.0 Z7.0 F150.0
G1 X-1.0 Z-6.95 F150.0
;<Delay> 7200
;********** Lift Sequence **********
;********** Pre-Slice Start ********
;Set up any GCode here to be executed before a lift
M106 S25
;********** Pre-Slice End **********
;<Slice> 5 
;<Delay> 5000 
;<Slice> Blank 
;********** Lift Sequence ********
M107
G1 X1.0 Z7.0 F150.0
G1 X-1.0 Z-6.95 F150.0
;<Delay> 7200
;********** Lift Sequence **********
;********** Pre-Slice Start ********
;Set up any GCode here to be executed before a lift
M106 S25
;********** Pre-Slice End **********
;<Slice> 6 
;<Delay> 5000 
;<Slice> Blank 
;********** Lift Sequence ********
M107
G1 X1.0 Z7.0 F150.0
G1 X-1.0 Z-6.95 F150.0
;<Delay> 7200
;********** Lift Sequence **********
;********** Pre-Slice Start ********
;Set up any GCode here to be executed before a lift
M106 S25
;********** Pre-Slice End **********
;<Slice> 7 
;<Delay> 8000 
;<Slice> Blank 
;********** Lift Sequence ********
M107
G1 X1.0 Z7.0 F150.0
G1 X-1.0 Z-6.95 F150.0
;<Delay> 7200
;********** Lift Sequence **********
;********** Pre-Slice Start ********
;Set up any GCode here to be executed before a lift
M106 S25
;********** Pre-Slice End **********
;<Slice> 8 
;<Delay> 8000 
;<Slice> Blank 
;********** Lift Sequence ********
M107
G1 X1.0 Z7.0 F150.0
G1 X-1.0 Z-6.95 F150.0
;<Delay> 7200
;********** Lift Sequence **********
;********** Pre-Slice Start ********
;Set up any GCode here to be executed before a lift
M106 S25
;********** Pre-Slice End **********
;<Slice> 9 
;<Delay> 8000 
;<Slice> Blank 
;********** Lift Sequence ********
M107
G1 X1.0 Z7.0 F150.0
G1 X-1.0 Z-6.95 F150.0
;<Delay> 7200
;********** Lift Sequence **********
;********** Pre-Slice Start ********
;Set up any GCode here to be executed before a lift
M106 S25
;********** Pre-Slice End **********
;<Slice> 10 
;<Delay> 8000 
;<Slice> Blank 
;********** Lift Sequence ********
M107
G1 X1.0 Z7.0 F150.0
G1 X-1.0 Z-6.95 F150.0
;<Delay> 7200
;********** Lift Sequence **********
;********** Pre-Slice Start ********
;Set up any GCode here to be executed before a lift
M106 S25
;********** Pre-Slice End **********
;<Slice> 11 
;<Delay> 8000 
;<Slice> Blank 
;********** Lift Sequence ********
M107
G1 X1.0 Z7.0 F150.0
G1 X-1.0 Z-6.95 F150.0
;<Delay> 7200
;********** Lift Sequence **********
;********** Pre-Slice Start ********
;Set up any GCode here to be executed before a lift
M106 S25
;********** Pre-Slice End **********
;<Slice> 12 
;<Delay> 8000 
;<Slice> Blank 
;********** Lift Sequence ********
M107
G1 X1.0 Z7.0 F150.0
G1 X-1.0 Z-6.95 F150.0
;<Delay> 7200
;********** Lift Sequence **********
;********** Pre-Slice Start ********
;Set up any GCode here to be executed before a lift
M106 S25
;********** Pre-Slice End **********
;<Slice> 13 
;<Delay> 8000 
;<Slice> Blank 
;********** Lift Sequence ********
M107
G1 X1.0 Z7.0 F150.0
G1 X-1.0 Z-6.95 F150.0
;<Delay> 7200
;********** Lift Sequence **********
;********** Pre-Slice Start ********
;Set up any GCode here to be executed before a lift
M106 S25
;********** Pre-Slice End **********
;<Slice> 14 
;<Delay> 8000 
;<Slice> Blank 
;********** Lift Sequence ********
M107
G1 X1.0 Z7.0 F150.0
G1 X-1.0 Z-6.95 F150.0
;<Delay> 7200
;********** Lift Sequence **********
;********** Pre-Slice Start ********
;Set up any GCode here to be executed before a lift
M106 S25
;********** Pre-Slice End **********
;<Slice> 15 
;<Delay> 8000 
;<Slice> Blank 
;********** Lift Sequence ********
M107
G1 X1.0 Z7.0 F150.0
G1 X-1.0 Z-6.95 F150.0
;<Delay> 7200
;********** Lift Sequence **********
;********** Pre-Slice Start ********
;Set up any GCode here to be executed before a lift
M106 S25
;********** Pre-Slice End **********
;<Slice> 16 
;<Delay> 8000 
;<Slice> Blank 
;********** Lift Sequence ********
M107
G1 X1.0 Z7.0 F150.0
G1 X-1.0 Z-6.95 F150.0
;<Delay> 7200
;********** Lift Sequence **********
;********** Pre-Slice Start ********
;Set up any GCode here to be executed before a lift
M106 S25
;********** Pre-Slice End **********
;<Slice> 17 
;<Delay> 8000 
;<Slice> Blank 
;********** Lift Sequence ********
M107
G1 X1.0 Z7.0 F150.0
G1 X-1.0 Z-6.95 F150.0
;<Delay> 7200
;********** Lift Sequence **********
;********** Pre-Slice Start ********
;Set up any GCode here to be executed before a lift
M106 S25
;********** Pre-Slice End **********
;<Slice> 18 
;<Delay> 8000 
;<Slice> Blank 
;********** Lift Sequence ********
M107
G1 X1.0 Z7.0 F150.0
G1 X-1.0 Z-6.95 F150.0
;<Delay> 7200
;********** Lift Sequence **********
;********** Pre-Slice Start ********
;Set up any GCode here to be executed before a lift
M106 S25
;********** Pre-Slice End **********
;<Slice> 19 
;<Delay> 8000 
;<Slice> Blank 
;********** Lift Sequence ********
M107
G1 X1.0 Z7.0 F150.0
G1 X-1.0 Z-6.95 F150.0
;<Delay> 7200
;********** Lift Sequence **********
;********** Pre-Slice Start ********
;Set up any GCode here to be executed before a lift
M106 S25
;********** Pre-Slice End **********
;<Slice> 20 
;<Delay> 8000 
;<Slice> Blank 
;********** Lift Sequence ********
M107
G1 X1.0 Z7.0 F150.0
G1 X-1.0 Z-6.95 F150.0
;<Delay> 7200
;********** Lift Sequence **********
;********** Pre-Slice Start ********
;Set up any GCode here to be executed before a lift
M106 S25
;********** Pre-Slice End **********
;<Slice> 21 
;<Delay> 8000 
;<Slice> Blank 
;********** Lift Sequence ********
M107
G1 X1.0 Z7.0 F150.0
G1 X-1.0 Z-6.95 F150.0
;<Delay> 7200
;********** Lift Sequence **********
;********** Pre-Slice Start ********
;Set up any GCode here to be executed before a lift
M106 S25
;********** Pre-Slice End **********
;<Slice> 22 
;<Delay> 8000 
;<Slice> Blank 
;********** Lift Sequence ********
M107
G1 X1.0 Z7.0 F150.0
G1 X-1.0 Z-6.95 F150.0
;<Delay> 7200
;********** Lift Sequence **********
;********** Pre-Slice Start ********
;Set up any GCode here to be executed before a lift
M106 S25
;********** Pre-Slice End **********
;<Slice> 23 
;<Delay> 8000 
;<Slice> Blank 
;********** Lift Sequence ********
M107
G1 X1.0 Z7.0 F150.0
G1 X-1.0 Z-6.95 F150.0
;<Delay> 7200
;********** Lift Sequence **********
;********** Pre-Slice Start ********
;Set up any GCode here to be executed before a lift
M106 S25
;********** Pre-Slice End **********
;<Slice> 24 
;<Delay> 8000 
;<Slice> Blank 
;********** Lift Sequence ********
M107
G1 X1.0 Z7.0 F150.0
G1 X-1.0 Z-6.95 F150.0
;<Delay> 7200
;********** Lift Sequence **********
;********** Pre-Slice Start ********
;Set up any GCode here to be executed before a lift
M106 S25
;********** Pre-Slice End **********
;<Slice> 25 
;<Delay> 8000 
;<Slice> Blank 
;********** Lift Sequence ********
M107
G1 X1.0 Z7.0 F150.0
G1 X-1.0 Z-6.95 F150.0
;<Delay> 7200
;********** Lift Sequence **********
;********** Pre-Slice Start ********
;Set up any GCode here to be executed before a lift
M106 S25
;********** Pre-Slice End **********
;<Slice> 26 
;<Delay> 8000 
;<Slice> Blank 
;********** Lift Sequence ********
M107
G1 X1.0 Z7.0 F150.0
G1 X-1.0 Z-6.95 F150.0
;<Delay> 7200
;********** Lift Sequence **********
;********** Pre-Slice Start ********
;Set up any GCode here to be executed before a lift
M106 S25
;********** Pre-Slice End **********
;<Slice> 27 
;<Delay> 8000 
;<Slice> Blank 
;********** Lift Sequence ********
M107
G1 X1.0 Z7.0 F150.0
G1 X-1.0 Z-6.95 F150.0
;<Delay> 7200
;********** Lift Sequence **********
;********** Pre-Slice Start ********
;Set up any GCode here to be executed before a lift
M106 S25
;********** Pre-Slice End **********
;<Slice> 28 
;<Delay> 8000 
;<Slice> Blank 
;********** Lift Sequence ********
M107
G1 X1.0 Z7.0 F150.0
G1 X-1.0 Z-6.95 F150.0
;<Delay> 7200
;********** Lift Sequence **********
;********** Pre-Slice Start ********
;Set up any GCode here to be executed before a lift
M106 S25
;********** Pre-Slice End **********
;<Slice> 29 
;<Delay> 8000 
;<Slice> Blank 
;********** Lift Sequence ********
M107
G1 X1.0 Z7.0 F150.0
G1 X-1.0 Z-6.95 F150.0
;<Delay> 7200
;********** Lift Sequence **********
;********** Pre-Slice Start ********
;Set up any GCode here to be executed before a lift
M106 S25
;********** Pre-Slice End **********
;<Slice> 30 
;<Delay> 8000 
;<Slice> Blank 
;********** Lift Sequence ********
M107
G1 X1.0 Z7.0 F150.0
G1 X-1.0 Z-6.95 F150.0
;<Delay> 7200
;********** Lift Sequence **********
;********** Pre-Slice Start ********
;Set up any GCode here to be executed before a lift
M106 S25
;********** Pre-Slice End **********
;<Slice> 31 
;<Delay> 8000 
;<Slice> Blank 
;********** Lift Sequence ********
M107
G1 X1.0 Z7.0 F150.0
G1 X-1.0 Z-6.95 F150.0
;<Delay> 7200
;********** Lift Sequence **********
;********** Pre-Slice Start ********
;Set up any GCode here to be executed before a lift
M106 S25
;********** Pre-Slice End **********
;<Slice> 32 
;<Delay> 8000 
;<Slice> Blank 
;********** Lift Sequence ********
M107
G1 X1.0 Z7.0 F150.0
G1 X-1.0 Z-6.95 F150.0
;<Delay> 7200
;********** Lift Sequence **********
;********** Pre-Slice Start ********
;Set up any GCode here to be executed before a lift
M106 S25
;********** Pre-Slice End **********
;<Slice> 33 
;<Delay> 8000 
;<Slice> Blank 
;********** Lift Sequence ********
M107
G1 X1.0 Z7.0 F150.0
G1 X-1.0 Z-6.95 F150.0
;<Delay> 7200
;********** Lift Sequence **********
;********** Pre-Slice Start ********
;Set up any GCode here to be executed before a lift
M106 S25
;********** Pre-Slice End **********
;<Slice> 34 
;<Delay> 8000 
;<Slice> Blank 
;********** Lift Sequence ********
M107
G1 X1.0 Z7.0 F150.0
G1 X-1.0 Z-6.95 F150.0
;<Delay> 7200
;********** Lift Sequence **********
;********** Pre-Slice Start ********
;Set up any GCode here to be executed before a lift
M106 S25
;********** Pre-Slice End **********
;<Slice> 35 
;<Delay> 8000 
;<Slice> Blank 
;********** Lift Sequence ********
M107
G1 X1.0 Z7.0 F150.0
G1 X-1.0 Z-6.95 F150.0
;<Delay> 7200
;********** Lift Sequence **********
;********** Pre-Slice Start ********
;Set up any GCode here to be executed before a lift
M106 S25
;********** Pre-Slice End **********
;<Slice> 36 
;<Delay> 8000 
;<Slice> Blank 
;********** Lift Sequence ********
M107
G1 X1.0 Z7.0 F150.0
G1 X-1.0 Z-6.95 F150.0
;<Delay> 7200
;********** Lift Sequence **********
;********** Pre-Slice Start ********
;Set up any GCode here to be executed before a lift
M106 S25
;********** Pre-Slice End **********
;<Slice> 37 
;<Delay> 8000 
;<Slice> Blank 
;********** Lift Sequence ********
M107
G1 X1.0 Z7.0 F150.0
G1 X-1.0 Z-6.95 F150.0
;<Delay> 7200
;********** Lift Sequence **********
;********** Pre-Slice Start ********
;Set up any GCode here to be executed before a lift
M106 S25
;********** Pre-Slice End **********
;<Slice> 38 
;<Delay> 8000 
;<Slice> Blank 
;********** Lift Sequence ********
M107
G1 X1.0 Z7.0 F150.0
G1 X-1.0 Z-6.95 F150.0
;<Delay> 7200
;********** Lift Sequence **********
;********** Pre-Slice Start ********
;Set up any GCode here to be executed before a lift
M106 S25
;********** Pre-Slice End **********
;<Slice> 39 
;<Delay> 8000 
;<Slice> Blank 
;********** Lift Sequence ********
M107
G1 X1.0 Z7.0 F150.0
G1 X-1.0 Z-6.95 F150.0
;<Delay> 7200
;********** Lift Sequence **********
;********** Pre-Slice Start ********
;Set up any GCode here to be executed before a lift
M106 S25
;********** Pre-Slice End **********
;<Slice> 40 
;<Delay> 8000 
;<Slice> Blank 
;********** Lift Sequence ********
M107
G1 X1.0 Z7.0 F150.0
G1 X-1.0 Z-6.95 F150.0
;<Delay> 7200
;********** Lift Sequence **********
;********** Pre-Slice Start ********
;Set up any GCode here to be executed before a lift
M106 S25
;********** Pre-Slice End **********
;<Slice> 41 
;<Delay> 8000 
;<Slice> Blank 
;********** Lift Sequence ********
M107
G1 X1.0 Z7.0 F150.0
G1 X-1.0 Z-6.95 F150.0
;<Delay> 7200
;********** Lift Sequence **********
;********** Pre-Slice Start ********
;Set up any GCode here to be executed before a lift
M106 S25
;********** Pre-Slice End **********
;<Slice> 42 
;<Delay> 8000 
;<Slice> Blank 
;********** Lift Sequence ********
M107
G1 X1.0 Z7.0 F150.0
G1 X-1.0 Z-6.95 F150.0
;<Delay> 7200
;********** Lift Sequence **********
;********** Pre-Slice Start ********
;Set up any GCode here to be executed before a lift
M106 S25
;********** Pre-Slice End **********
;<Slice> 43 
;<Delay> 8000 
;<Slice> Blank 
;********** Lift Sequence ********
M107
G1 X1.0 Z7.0 F150.0
G1 X-1.0 Z-6.95 F150.0
;<Delay> 7200
;********** Lift Sequence **********
;********** Pre-Slice Start ********
;Set up any GCode here to be executed before a lift
M106 S25
;********** Pre-Slice End **********
;<Slice> 44 
;<Delay> 8000 
;<Slice> Blank 
;********** Lift Sequence ********
M107
G1 X1.0 Z7.0 F150.0
G1 X-1.0 Z-6.95 F150.0
;<Delay> 7200
;********** Lift Sequence **********
;********** Pre-Slice Start ********
;Set up any GCode here to be executed before a lift
M106 S25
;********** Pre-Slice End **********
;<Slice> 45 
;<Delay> 8000 
;<Slice> Blank 
;********** Lift Sequence ********
M107
G1 X1.0 Z7.0 F150.0
G1 X-1.0 Z-6.95 F150.0
;<Delay> 7200
;********** Lift Sequence **********
;********** Pre-Slice Start ********
;Set up any GCode here to be executed before a lift
M106 S25
;********** Pre-Slice End **********
;<Slice> 46 
;<Delay> 8000 
;<Slice> Blank 
;********** Lift Sequence ********
M107
G1 X1.0 Z7.0 F150.0
G1 X-1.0 Z-6.95 F150.0
;<Delay> 7200
;********** Lift Sequence **********
;********** Pre-Slice Start ********
;Set up any GCode here to be executed before a lift
M106 S25
;********** Pre-Slice End **********
;<Slice> 47 
;<Delay> 8000 
;<Slice> Blank 
;********** Lift Sequence ********
M107
G1 X1.0 Z7.0 F150.0
G1 X-1.0 Z-6.95 F150.0
;<Delay> 7200
;********** Lift Sequence **********
;********** Pre-Slice Start ********
;Set up any GCode here to be executed before a lift
M106 S25
;********** Pre-Slice End **********
;<Slice> 48 
;<Delay> 8000 
;<Slice> Blank 
;********** Lift Sequence ********
M107
G1 X1.0 Z7.0 F150.0
G1 X-1.0 Z-6.95 F150.0
;<Delay> 7200
;********** Lift Sequence **********
;********** Pre-Slice Start ********
;Set up any GCode here to be executed before a lift
M106 S25
;********** Pre-Slice End **********
;<Slice> 49 
;<Delay> 8000 
;<Slice> Blank 
;********** Lift Sequence ********
M107
G1 X1.0 Z7.0 F150.0
G1 X-1.0 Z-6.95 F150.0
;<Delay> 7200
;********** Lift Sequence **********
;********** Pre-Slice Start ********
;Set up any GCode here to be executed before a lift
M106 S25
;********** Pre-Slice End **********
;<Slice> 50 
;<Delay> 8000 
;<Slice> Blank 
;********** Lift Sequence ********
M107
G1 X1.0 Z7.0 F150.0
G1 X-1.0 Z-6.95 F150.0
;<Delay> 7200
;********** Lift Sequence **********
;********** Pre-Slice Start ********
;Set up any GCode here to be executed before a lift
M106 S25
;********** Pre-Slice End **********
;<Slice> 51 
;<Delay> 8000 
;<Slice> Blank 
;********** Lift Sequence ********
M107
G1 X1.0 Z7.0 F150.0
G1 X-1.0 Z-6.95 F150.0
;<Delay> 7200
;********** Lift Sequence **********
;********** Pre-Slice Start ********
;Set up any GCode here to be executed before a lift
M106 S25
;********** Pre-Slice End **********
;<Slice> 52 
;<Delay> 8000 
;<Slice> Blank 
;********** Lift Sequence ********
M107
G1 X1.0 Z7.0 F150.0
G1 X-1.0 Z-6.95 F150.0
;<Delay> 7200
;********** Lift Sequence **********
;********** Pre-Slice Start ********
;Set up any GCode here to be executed before a lift
M106 S25
;********** Pre-Slice End **********
;<Slice> 53 
;<Delay> 8000 
;<Slice> Blank 
;********** Lift Sequence ********
M107
G1 X1.0 Z7.0 F150.0
G1 X-1.0 Z-6.95 F150.0
;<Delay> 7200
;********** Lift Sequence **********
;********** Pre-Slice Start ********
;Set up any GCode here to be executed before a lift
M106 S25
;********** Pre-Slice End **********
;<Slice> 54 
;<Delay> 8000 
;<Slice> Blank 
;********** Lift Sequence ********
M107
G1 X1.0 Z7.0 F150.0
G1 X-1.0 Z-6.95 F150.0
;<Delay> 7200
;********** Lift Sequence **********
;********** Pre-Slice Start ********
;Set up any GCode here to be executed before a lift
M106 S25
;********** Pre-Slice End **********
;<Slice> 55 
;<Delay> 8000 
;<Slice> Blank 
;********** Lift Sequence ********
M107
G1 X1.0 Z7.0 F150.0
G1 X-1.0 Z-6.95 F150.0
;<Delay> 7200
;********** Lift Sequence **********
;********** Pre-Slice Start ********
;Set up any GCode here to be executed before a lift
M106 S25
;********** Pre-Slice End **********
;<Slice> 56 
;<Delay> 8000 
;<Slice> Blank 
;********** Lift Sequence ********
M107
G1 X1.0 Z7.0 F150.0
G1 X-1.0 Z-6.95 F150.0
;<Delay> 7200
;********** Lift Sequence **********
;********** Pre-Slice Start ********
;Set up any GCode here to be executed before a lift
M106 S25
;********** Pre-Slice End **********
;<Slice> 57 
;<Delay> 8000 
;<Slice> Blank 
;********** Lift Sequence ********
M107
G1 X1.0 Z7.0 F150.0
G1 X-1.0 Z-6.95 F150.0
;<Delay> 7200
;********** Lift Sequence **********
;********** Pre-Slice Start ********
;Set up any GCode here to be executed before a lift
M106 S25
;********** Pre-Slice End **********
;<Slice> 58 
;<Delay> 8000 
;<Slice> Blank 
;********** Lift Sequence ********
M107
G1 X1.0 Z7.0 F150.0
G1 X-1.0 Z-6.95 F150.0
;<Delay> 7200
;********** Lift Sequence **********
;********** Pre-Slice Start ********
;Set up any GCode here to be executed before a lift
M106 S25
;********** Pre-Slice End **********
;<Slice> 59 
;<Delay> 8000 
;<Slice> Blank 
;********** Lift Sequence ********
M107
G1 X1.0 Z7.0 F150.0
G1 X-1.0 Z-6.95 F150.0
;<Delay> 7200
;********** Lift Sequence **********
;********** Pre-Slice Start ********
;Set up any GCode here to be executed before a lift
M106 S25
;********** Pre-Slice End **********
;<Slice> 60 
;<Delay> 8000 
;<Slice> Blank 
;********** Lift Sequence ********
M107
G1 X1.0 Z7.0 F150.0
G1 X-1.0 Z-6.95 F150.0
;<Delay> 7200
;********** Lift Sequence **********
;********** Pre-Slice Start ********
;Set up any GCode here to be executed before a lift
M106 S25
;********** Pre-Slice End **********
;<Slice> 61 
;<Delay> 8000 
;<Slice> Blank 
;********** Lift Sequence ********
M107
G1 X1.0 Z7.0 F150.0
G1 X-1.0 Z-6.95 F150.0
;<Delay> 7200
;********** Lift Sequence **********
;********** Pre-Slice Start ********
;Set up any GCode here to be executed before a lift
M106 S25
;********** Pre-Slice End **********
;<Slice> 62 
;<Delay> 8000 
;<Slice> Blank 
;********** Lift Sequence ********
M107
G1 X1.0 Z7.0 F150.0
G1 X-1.0 Z-6.95 F150.0
;<Delay> 7200
;********** Lift Sequence **********
;********** Pre-Slice Start ********
;Set up any GCode here to be executed before a lift
M106 S25
;********** Pre-Slice End **********
;<Slice> 63 
;<Delay> 8000 
;<Slice> Blank 
;********** Lift Sequence ********
M107
G1 X1.0 Z7.0 F150.0
G1 X-1.0 Z-6.95 F150.0
;<Delay> 7200
;********** Lift Sequence **********
;********** Pre-Slice Start ********
;Set up any GCode here to be executed before a lift
M106 S25
;********** Pre-Slice End **********
;<Slice> 64 
;<Delay> 8000 
;<Slice> Blank 
;********** Lift Sequence ********
M107
G1 X1.0 Z7.0 F150.0
G1 X-1.0 Z-6.95 F150.0
;<Delay> 7200
;********** Lift Sequence **********
;********** Pre-Slice Start ********
;Set up any GCode here to be executed before a lift
M106 S25
;********** Pre-Slice End **********
;<Slice> 65 
;<Delay> 8000 
;<Slice> Blank 
;********** Lift Sequence ********
M107
G1 X1.0 Z7.0 F150.0
G1 X-1.0 Z-6.95 F150.0
;<Delay> 7200
;********** Lift Sequence **********
;********** Pre-Slice Start ********
;Set up any GCode here to be executed before a lift
M106 S25
;********** Pre-Slice End **********
;<Slice> 66 
;<Delay> 8000 
;<Slice> Blank 
;********** Lift Sequence ********
M107
G1 X1.0 Z7.0 F150.0
G1 X-1.0 Z-6.95 F150.0
;<Delay> 7200
;********** Lift Sequence **********
;********** Pre-Slice Start ********
;Set up any GCode here to be executed before a lift
M106 S25
;********** Pre-Slice End **********
;<Slice> 67 
;<Delay> 8000 
;<Slice> Blank 
;********** Lift Sequence ********
M107
G1 X1.0 Z7.0 F150.0
G1 X-1.0 Z-6.95 F150.0
;<Delay> 7200
;********** Lift Sequence **********
;********** Pre-Slice Start ********
;Set up any GCode here to be executed before a lift
M106 S25
;********** Pre-Slice End **********
;<Slice> 68 
;<Delay> 8000 
;<Slice> Blank 
;********** Lift Sequence ********
M107
G1 X1.0 Z7.0 F150.0
G1 X-1.0 Z-6.95 F150.0
;<Delay> 7200
;********** Lift Sequence **********
;********** Pre-Slice Start ********
;Set up any GCode here to be executed before a lift
M106 S25
;********** Pre-Slice End **********
;<Slice> 69 
;<Delay> 8000 
;<Slice> Blank 
;********** Lift Sequence ********
M107
G1 X1.0 Z7.0 F150.0
G1 X-1.0 Z-6.95 F150.0
;<Delay> 7200
;********** Lift Sequence **********
;********** Pre-Slice Start ********
;Set up any GCode here to be executed before a lift
M106 S25
;********** Pre-Slice End **********
;<Slice> 70 
;<Delay> 8000 
;<Slice> Blank 
;********** Lift Sequence ********
M107
G1 X1.0 Z7.0 F150.0
G1 X-1.0 Z-6.95 F150.0
;<Delay> 7200
;********** Lift Sequence **********
;********** Pre-Slice Start ********
;Set up any GCode here to be executed before a lift
M106 S25
;********** Pre-Slice End **********
;<Slice> 71 
;<Delay> 8000 
;<Slice> Blank 
;********** Lift Sequence ********
M107
G1 X1.0 Z7.0 F150.0
G1 X-1.0 Z-6.95 F150.0
;<Delay> 7200
;********** Lift Sequence **********
;********** Pre-Slice Start ********
;Set up any GCode here to be executed before a lift
M106 S25
;********** Pre-Slice End **********
;<Slice> 72 
;<Delay> 8000 
;<Slice> Blank 
;********** Lift Sequence ********
M107
G1 X1.0 Z7.0 F150.0
G1 X-1.0 Z-6.95 F150.0
;<Delay> 7200
;********** Lift Sequence **********
;********** Pre-Slice Start ********
;Set up any GCode here to be executed before a lift
M106 S25
;********** Pre-Slice End **********
;<Slice> 73 
;<Delay> 8000 
;<Slice> Blank 
;********** Lift Sequence ********
M107
G1 X1.0 Z7.0 F150.0
G1 X-1.0 Z-6.95 F150.0
;<Delay> 7200
;********** Lift Sequence **********
;********** Pre-Slice Start ********
;Set up any GCode here to be executed before a lift
M106 S25
;********** Pre-Slice End **********
;<Slice> 74 
;<Delay> 8000 
;<Slice> Blank 
;********** Lift Sequence ********
M107
G1 X1.0 Z7.0 F150.0
G1 X-1.0 Z-6.95 F150.0
;<Delay> 7200
;********** Lift Sequence **********
;********** Pre-Slice Start ********
;Set up any GCode here to be executed before a lift
M106 S25
;********** Pre-Slice End **********
;<Slice> 75 
;<Delay> 8000 
;<Slice> Blank 
;********** Lift Sequence ********
M107
G1 X1.0 Z7.0 F150.0
G1 X-1.0 Z-6.95 F150.0
;<Delay> 7200
;********** Lift Sequence **********
;********** Pre-Slice Start ********
;Set up any GCode here to be executed before a lift
M106 S25
;********** Pre-Slice End **********
;<Slice> 76 
;<Delay> 8000 
;<Slice> Blank 
;********** Lift Sequence ********
M107
G1 X1.0 Z7.0 F150.0
G1 X-1.0 Z-6.95 F150.0
;<Delay> 7200
;********** Lift Sequence **********
;********** Pre-Slice Start ********
;Set up any GCode here to be executed before a lift
M106 S25
;********** Pre-Slice End **********
;<Slice> 77 
;<Delay> 8000 
;<Slice> Blank 
;********** Lift Sequence ********
M107
G1 X1.0 Z7.0 F150.0
G1 X-1.0 Z-6.95 F150.0
;<Delay> 7200
;********** Lift Sequence **********
;********** Pre-Slice Start ********
;Set up any GCode here to be executed before a lift
M106 S25
;********** Pre-Slice End **********
;<Slice> 78 
;<Delay> 8000 
;<Slice> Blank 
;********** Lift Sequence ********
M107
G1 X1.0 Z7.0 F150.0
G1 X-1.0 Z-6.95 F150.0
;<Delay> 7200
;********** Lift Sequence **********
;********** Pre-Slice Start ********
;Set up any GCode here to be executed before a lift
M106 S25
;********** Pre-Slice End **********
;<Slice> 79 
;<Delay> 8000 
;<Slice> Blank 
;********** Lift Sequence ********
M107
G1 X1.0 Z7.0 F150.0
G1 X-1.0 Z-6.95 F150.0
;<Delay> 7200
;********** Lift Sequence **********
;********** Pre-Slice Start ********
;Set up any GCode here to be executed before a lift
M106 S25
;********** Pre-Slice End **********
;<Slice> 80 
;<Delay> 8000 
;<Slice> Blank 
;********** Lift Sequence ********
M107
G1 X1.0 Z7.0 F150.0
G1 X-1.0 Z-6.95 F150.0
;<Delay> 7200
;********** Lift Sequence **********
;********** Pre-Slice Start ********
;Set up any GCode here to be executed before a lift
M106 S25
;********** Pre-Slice End **********
;<Slice> 81 
;<Delay> 8000 
;<Slice> Blank 
;********** Lift Sequence ********
M107
G1 X1.0 Z7.0 F150.0
G1 X-1.0 Z-6.95 F150.0
;<Delay> 7200
;********** Lift Sequence **********
;********** Pre-Slice Start ********
;Set up any GCode here to be executed before a lift
M106 S25
;********** Pre-Slice End **********
;<Slice> 82 
;<Delay> 8000 
;<Slice> Blank 
;********** Lift Sequence ********
M107
G1 X1.0 Z7.0 F150.0
G1 X-1.0 Z-6.95 F150.0
;<Delay> 7200
;********** Lift Sequence **********
;********** Pre-Slice Start ********
;Set up any GCode here to be executed before a lift
M106 S25
;********** Pre-Slice End **********
;<Slice> 83 
;<Delay> 8000 
;<Slice> Blank 
;********** Lift Sequence ********
M107
G1 X1.0 Z7.0 F150.0
G1 X-1.0 Z-6.95 F150.0
;<Delay> 7200
;********** Lift Sequence **********
;********** Pre-Slice Start ********
;Set up any GCode here to be executed before a lift
M106 S25
;********** Pre-Slice End **********
;<Slice> 84 
;<Delay> 8000 
;<Slice> Blank 
;********** Lift Sequence ********
M107
G1 X1.0 Z7.0 F150.0
G1 X-1.0 Z-6.95 F150.0
;<Delay> 7200
;********** Lift Sequence **********
;********** Pre-Slice Start ********
;Set up any GCode here to be executed before a lift
M106 S25
;********** Pre-Slice End **********
;<Slice> 85 
;<Delay> 8000 
;<Slice> Blank 
;********** Lift Sequence ********
M107
G1 X1.0 Z7.0 F150.0
G1 X-1.0 Z-6.95 F150.0
;<Delay> 7200
;********** Lift Sequence **********
;********** Pre-Slice Start ********
;Set up any GCode here to be executed before a lift
M106 S25
;********** Pre-Slice End **********
;<Slice> 86 
;<Delay> 8000 
;<Slice> Blank 
;********** Lift Sequence ********
M107
G1 X1.0 Z7.0 F150.0
G1 X-1.0 Z-6.95 F150.0
;<Delay> 7200
;********** Lift Sequence **********
;********** Pre-Slice Start ********
;Set up any GCode here to be executed before a lift
M106 S25
;********** Pre-Slice End **********
;<Slice> 87 
;<Delay> 8000 
;<Slice> Blank 
;********** Lift Sequence ********
M107
G1 X1.0 Z7.0 F150.0
G1 X-1.0 Z-6.95 F150.0
;<Delay> 7200
;********** Lift Sequence **********
;********** Pre-Slice Start ********
;Set up any GCode here to be executed before a lift
M106 S25
;********** Pre-Slice End **********
;<Slice> 88 
;<Delay> 8000 
;<Slice> Blank 
;********** Lift Sequence ********
M107
G1 X1.0 Z7.0 F150.0
G1 X-1.0 Z-6.95 F150.0
;<Delay> 7200
;********** Lift Sequence **********
;********** Pre-Slice Start ********
;Set up any GCode here to be executed before a lift
M106 S25
;********** Pre-Slice End **********
;<Slice> 89 
;<Delay> 8000 
;<Slice> Blank 
;********** Lift Sequence ********
M107
G1 X1.0 Z7.0 F150.0
G1 X-1.0 Z-6.95 F150.0
;<Delay> 7200
;********** Lift Sequence **********
;********** Pre-Slice Start ********
;Set up any GCode here to be executed before a lift
M106 S25
;********** Pre-Slice End **********
;<Slice> 90 
;<Delay> 8000 
;<Slice> Blank 
;********** Lift Sequence ********
M107
G1 X1.0 Z7.0 F150.0
G1 X-1.0 Z-6.95 F150.0
;<Delay> 7200
;********** Lift Sequence **********
;********** Pre-Slice Start ********
;Set up any GCode here to be executed before a lift
M106 S25
;********** Pre-Slice End **********
;<Slice> 91 
;<Delay> 8000 
;<Slice> Blank 
;********** Lift Sequence ********
M107
G1 X1.0 Z7.0 F150.0
G1 X-1.0 Z-6.95 F150.0
;<Delay> 7200
;********** Lift Sequence **********
;********** Pre-Slice Start ********
;Set up any GCode here to be executed before a lift
M106 S25
;********** Pre-Slice End **********
;<Slice> 92 
;<Delay> 8000 
;<Slice> Blank 
;********** Lift Sequence ********
M107
G1 X1.0 Z7.0 F150.0
G1 X-1.0 Z-6.95 F150.0
;<Delay> 7200
;********** Lift Sequence **********
;********** Pre-Slice Start ********
;Set up any GCode here to be executed before a lift
M106 S25
;********** Pre-Slice End **********
;<Slice> 93 
;<Delay> 8000 
;<Slice> Blank 
;********** Lift Sequence ********
M107
G1 X1.0 Z7.0 F150.0
G1 X-1.0 Z-6.95 F150.0
;<Delay> 7200
;********** Lift Sequence **********
;********** Pre-Slice Start ********
;Set up any GCode here to be executed before a lift
M106 S25
;********** Pre-Slice End **********
;<Slice> 94 
;<Delay> 8000 
;<Slice> Blank 
;********** Lift Sequence ********
M107
G1 X1.0 Z7.0 F150.0
G1 X-1.0 Z-6.95 F150.0
;<Delay> 7200
;********** Lift Sequence **********
;********** Pre-Slice Start ********
;Set up any GCode here to be executed before a lift
M106 S25
;********** Pre-Slice End **********
;<Slice> 95 
;<Delay> 8000 
;<Slice> Blank 
;********** Lift Sequence ********
M107
G1 X1.0 Z7.0 F150.0
G1 X-1.0 Z-6.95 F150.0
;<Delay> 7200
;********** Lift Sequence **********
;********** Pre-Slice Start ********
;Set up any GCode here to be executed before a lift
M106 S25
;********** Pre-Slice End **********
;<Slice> 96 
;<Delay> 8000 
;<Slice> Blank 
;********** Lift Sequence ********
M107
G1 X1.0 Z7.0 F150.0
G1 X-1.0 Z-6.95 F150.0
;<Delay> 7200
;********** Lift Sequence **********
;********** Pre-Slice Start ********
;Set up any GCode here to be executed before a lift
M106 S25
;********** Pre-Slice End **********
;<Slice> 97 
;<Delay> 8000 
;<Slice> Blank 
;********** Lift Sequence ********
M107
G1 X1.0 Z7.0 F150.0
G1 X-1.0 Z-6.95 F150.0
;<Delay> 7200
;********** Lift Sequence **********
;********** Pre-Slice Start ********
;Set up any GCode here to be executed before a lift
M106 S25
;********** Pre-Slice End **********
;<Slice> 98 
;<Delay> 8000 
;<Slice> Blank 
;********** Lift Sequence ********
M107
G1 X1.0 Z7.0 F150.0
G1 X-1.0 Z-6.95 F150.0
;<Delay> 7200
;********** Lift Sequence **********
;********** Pre-Slice Start ********
;Set up any GCode here to be executed before a lift
M106 S25
;********** Pre-Slice End **********
;<Slice> 99 
;<Delay> 8000 
;<Slice> Blank 
;********** Lift Sequence ********
M107
G1 X1.0 Z7.0 F150.0
G1 X-1.0 Z-6.95 F150.0
;<Delay> 7200
;********** Lift Sequence **********
;********** Pre-Slice Start ********
;Set up any GCode here to be executed before a lift
M106 S25
;********** Pre-Slice End **********
;<Slice> 100 
;<Delay> 8000 
;<Slice> Blank 
;********** Lift Sequence ********
M107
G1 X1.0 Z7.0 F150.0
G1 X-1.0 Z-6.95 F150.0
;<Delay> 7200
;********** Lift Sequence **********
;********** Pre-Slice Start ********
;Set up any GCode here to be executed before a lift
M106 S25
;********** Pre-Slice End **********
;<Slice> 101 
;<Delay> 8000 
;<Slice> Blank 
;********** Lift Sequence ********
M107
G1 X1.0 Z7.0 F150.0
G1 X-1.0 Z-6.95 F150.0
;<Delay> 7200
;********** Lift Sequence **********
;********** Pre-Slice Start ********
;Set up any GCode here to be executed before a lift
M106 S25
;********** Pre-Slice End **********
;<Slice> 102 
;<Delay> 8000 
;<Slice> Blank 
;********** Lift Sequence ********
M107
G1 X1.0 Z7.0 F150.0
G1 X-1.0 Z-6.95 F150.0
;<Delay> 7200
;********** Lift Sequence **********
;********** Pre-Slice Start ********
;Set up any GCode here to be executed before a lift
M106 S25
;********** Pre-Slice End **********
;<Slice> 103 
;<Delay> 8000 
;<Slice> Blank 
;********** Lift Sequence ********
M107
G1 X1.0 Z7.0 F150.0
G1 X-1.0 Z-6.95 F150.0
;<Delay> 7200
;********** Lift Sequence **********
;********** Pre-Slice Start ********
;Set up any GCode here to be executed before a lift
M106 S25
;********** Pre-Slice End **********
;<Slice> 104 
;<Delay> 8000 
;<Slice> Blank 
;********** Lift Sequence ********
M107
G1 X1.0 Z7.0 F150.0
G1 X-1.0 Z-6.95 F150.0
;<Delay> 7200
;********** Lift Sequence **********
;********** Pre-Slice Start ********
;Set up any GCode here to be executed before a lift
M106 S25
;********** Pre-Slice End **********
;<Slice> 105 
;<Delay> 8000 
;<Slice> Blank 
;********** Lift Sequence ********
M107
G1 X1.0 Z7.0 F150.0
G1 X-1.0 Z-6.95 F150.0
;<Delay> 7200
;********** Lift Sequence **********
;********** Pre-Slice Start ********
;Set up any GCode here to be executed before a lift
M106 S25
;********** Pre-Slice End **********
;<Slice> 106 
;<Delay> 8000 
;<Slice> Blank 
;********** Lift Sequence ********
M107
G1 X1.0 Z7.0 F150.0
G1 X-1.0 Z-6.95 F150.0
;<Delay> 7200
;********** Lift Sequence **********
;********** Pre-Slice Start ********
;Set up any GCode here to be executed before a lift
M106 S25
;********** Pre-Slice End **********
;<Slice> 107 
;<Delay> 8000 
;<Slice> Blank 
;********** Lift Sequence ********
M107
G1 X1.0 Z7.0 F150.0
G1 X-1.0 Z-6.95 F150.0
;<Delay> 7200
;********** Lift Sequence **********
;********** Pre-Slice Start ********
;Set up any GCode here to be executed before a lift
M106 S25
;********** Pre-Slice End **********
;<Slice> 108 
;<Delay> 8000 
;<Slice> Blank 
;********** Lift Sequence ********
M107
G1 X1.0 Z7.0 F150.0
G1 X-1.0 Z-6.95 F150.0
;<Delay> 7200
;********** Lift Sequence **********
;********** Pre-Slice Start ********
;Set up any GCode here to be executed before a lift
M106 S25
;********** Pre-Slice End **********
;<Slice> 109 
;<Delay> 8000 
;<Slice> Blank 
;********** Lift Sequence ********
M107
G1 X1.0 Z7.0 F150.0
G1 X-1.0 Z-6.95 F150.0
;<Delay> 7200
;********** Lift Sequence **********
;********** Pre-Slice Start ********
;Set up any GCode here to be executed before a lift
M106 S25
;********** Pre-Slice End **********
;<Slice> 110 
;<Delay> 8000 
;<Slice> Blank 
;********** Lift Sequence ********
M107
G1 X1.0 Z7.0 F150.0
G1 X-1.0 Z-6.95 F150.0
;<Delay> 7200
;********** Lift Sequence **********
;********** Pre-Slice Start ********
;Set up any GCode here to be executed before a lift
M106 S25
;********** Pre-Slice End **********
;<Slice> 111 
;<Delay> 8000 
;<Slice> Blank 
;********** Lift Sequence ********
M107
G1 X1.0 Z7.0 F150.0
G1 X-1.0 Z-6.95 F150.0
;<Delay> 7200
;********** Lift Sequence **********
;********** Pre-Slice Start ********
;Set up any GCode here to be executed before a lift
M106 S25
;********** Pre-Slice End **********
;<Slice> 112 
;<Delay> 8000 
;<Slice> Blank 
;********** Lift Sequence ********
M107
G1 X1.0 Z7.0 F150.0
G1 X-1.0 Z-6.95 F150.0
;<Delay> 7200
;********** Lift Sequence **********
;********** Pre-Slice Start ********
;Set up any GCode here to be executed before a lift
M106 S25
;********** Pre-Slice End **********
;<Slice> 113 
;<Delay> 8000 
;<Slice> Blank 
;********** Lift Sequence ********
M107
G1 X1.0 Z7.0 F150.0
G1 X-1.0 Z-6.95 F150.0
;<Delay> 7200
;********** Lift Sequence **********
;********** Pre-Slice Start ********
;Set up any GCode here to be executed before a lift
M106 S25
;********** Pre-Slice End **********
;<Slice> 114 
;<Delay> 8000 
;<Slice> Blank 
;********** Lift Sequence ********
M107
G1 X1.0 Z7.0 F150.0
G1 X-1.0 Z-6.95 F150.0
;<Delay> 7200
;********** Lift Sequence **********
;********** Pre-Slice Start ********
;Set up any GCode here to be executed before a lift
M106 S25
;********** Pre-Slice End **********
;<Slice> 115 
;<Delay> 8000 
;<Slice> Blank 
;********** Lift Sequence ********
M107
G1 X1.0 Z7.0 F150.0
G1 X-1.0 Z-6.95 F150.0
;<Delay> 7200
;********** Lift Sequence **********
;********** Pre-Slice Start ********
;Set up any GCode here to be executed before a lift
M106 S25
;********** Pre-Slice End **********
;<Slice> 116 
;<Delay> 8000 
;<Slice> Blank 
;********** Lift Sequence ********
M107
G1 X1.0 Z7.0 F150.0
G1 X-1.0 Z-6.95 F150.0
;<Delay> 7200
;********** Lift Sequence **********
;********** Pre-Slice Start ********
;Set up any GCode here to be executed before a lift
M106 S25
;********** Pre-Slice End **********
;<Slice> 117 
;<Delay> 8000 
;<Slice> Blank 
;********** Lift Sequence ********
M107
G1 X1.0 Z7.0 F150.0
G1 X-1.0 Z-6.95 F150.0
;<Delay> 7200
;********** Lift Sequence **********
;********** Pre-Slice Start ********
;Set up any GCode here to be executed before a lift
M106 S25
;********** Pre-Slice End **********
;<Slice> 118 
;<Delay> 8000 
;<Slice> Blank 
;********** Lift Sequence ********
M107
G1 X1.0 Z7.0 F150.0
G1 X-1.0 Z-6.95 F150.0
;<Delay> 7200
;********** Lift Sequence **********
;********** Pre-Slice Start ********
;Set up any GCode here to be executed before a lift
M106 S25
;********** Pre-Slice End **********
;<Slice> 119 
;<Delay> 8000 
;<Slice> Blank 
;********** Lift Sequence ********
M107
G1 X1.0 Z7.0 F150.0
G1 X-1.0 Z-6.95 F150.0
;<Delay> 7200
;********** Lift Sequence **********
;********** Pre-Slice Start ********
;Set up any GCode here to be executed before a lift
M106 S25
;********** Pre-Slice End **********
;<Slice> 120 
;<Delay> 8000 
;<Slice> Blank 
;********** Lift Sequence ********
M107
G1 X1.0 Z7.0 F150.0
G1 X-1.0 Z-6.95 F150.0
;<Delay> 7200
;********** Lift Sequence **********
;********** Pre-Slice Start ********
;Set up any GCode here to be executed before a lift
M106 S25
;********** Pre-Slice End **********
;<Slice> 121 
;<Delay> 8000 
;<Slice> Blank 
;********** Lift Sequence ********
M107
G1 X1.0 Z7.0 F150.0
G1 X-1.0 Z-6.95 F150.0
;<Delay> 7200
;********** Lift Sequence **********
;********** Pre-Slice Start ********
;Set up any GCode here to be executed before a lift
M106 S25
;********** Pre-Slice End **********
;<Slice> 122 
;<Delay> 8000 
;<Slice> Blank 
;********** Lift Sequence ********
M107
G1 X1.0 Z7.0 F150.0
G1 X-1.0 Z-6.95 F150.0
;<Delay> 7200
;********** Lift Sequence **********
;********** Pre-Slice Start ********
;Set up any GCode here to be executed before a lift
M106 S25
;********** Pre-Slice End **********
;<Slice> 123 
;<Delay> 8000 
;<Slice> Blank 
;********** Lift Sequence ********
M107
G1 X1.0 Z7.0 F150.0
G1 X-1.0 Z-6.95 F150.0
;<Delay> 7200
;********** Lift Sequence **********
;********** Pre-Slice Start ********
;Set up any GCode here to be executed before a lift
M106 S25
;********** Pre-Slice End **********
;<Slice> 124 
;<Delay> 8000 
;<Slice> Blank 
;********** Lift Sequence ********
M107
G1 X1.0 Z7.0 F150.0
G1 X-1.0 Z-6.95 F150.0
;<Delay> 7200
;********** Lift Sequence **********
;********** Pre-Slice Start ********
;Set up any GCode here to be executed before a lift
M106 S25
;********** Pre-Slice End **********
;<Slice> 125 
;<Delay> 8000 
;<Slice> Blank 
;********** Lift Sequence ********
M107
G1 X1.0 Z7.0 F150.0
G1 X-1.0 Z-6.95 F150.0
;<Delay> 7200
;********** Lift Sequence **********
;********** Pre-Slice Start ********
;Set up any GCode here to be executed before a lift
M106 S25
;********** Pre-Slice End **********
;<Slice> 126 
;<Delay> 8000 
;<Slice> Blank 
;********** Lift Sequence ********
M107
G1 X1.0 Z7.0 F150.0
G1 X-1.0 Z-6.95 F150.0
;<Delay> 7200
;********** Lift Sequence **********
;********** Pre-Slice Start ********
;Set up any GCode here to be executed before a lift
M106 S25
;********** Pre-Slice End **********
;<Slice> 127 
;<Delay> 8000 
;<Slice> Blank 
;********** Lift Sequence ********
M107
G1 X1.0 Z7.0 F150.0
G1 X-1.0 Z-6.95 F150.0
;<Delay> 7200
;********** Lift Sequence **********
;********** Pre-Slice Start ********
;Set up any GCode here to be executed before a lift
M106 S25
;********** Pre-Slice End **********
;<Slice> 128 
;<Delay> 8000 
;<Slice> Blank 
;********** Lift Sequence ********
M107
G1 X1.0 Z7.0 F150.0
G1 X-1.0 Z-6.95 F150.0
;<Delay> 7200
;********** Lift Sequence **********
;********** Pre-Slice Start ********
;Set up any GCode here to be executed before a lift
M106 S25
;********** Pre-Slice End **********
;<Slice> 129 
;<Delay> 8000 
;<Slice> Blank 
;********** Lift Sequence ********
M107
G1 X1.0 Z7.0 F150.0
G1 X-1.0 Z-6.95 F150.0
;<Delay> 7200
;********** Lift Sequence **********
;********** Pre-Slice Start ********
;Set up any GCode here to be executed before a lift
M106 S25
;********** Pre-Slice End **********
;<Slice> 130 
;<Delay> 8000 
;<Slice> Blank 
;********** Lift Sequence ********
M107
G1 X1.0 Z7.0 F150.0
G1 X-1.0 Z-6.95 F150.0
;<Delay> 7200
;********** Lift Sequence **********
;********** Pre-Slice Start ********
;Set up any GCode here to be executed before a lift
M106 S25
;********** Pre-Slice End **********
;<Slice> 131 
;<Delay> 8000 
;<Slice> Blank 
;********** Lift Sequence ********
M107
G1 X1.0 Z7.0 F150.0
G1 X-1.0 Z-6.95 F150.0
;<Delay> 7200
;********** Lift Sequence **********
;********** Pre-Slice Start ********
;Set up any GCode here to be executed before a lift
M106 S25
;********** Pre-Slice End **********
;<Slice> 132 
;<Delay> 8000 
;<Slice> Blank 
;********** Lift Sequence ********
M107
G1 X1.0 Z7.0 F150.0
G1 X-1.0 Z-6.95 F150.0
;<Delay> 7200
;********** Lift Sequence **********
;********** Pre-Slice Start ********
;Set up any GCode here to be executed before a lift
M106 S25
;********** Pre-Slice End **********
;<Slice> 133 
;<Delay> 8000 
;<Slice> Blank 
;********** Lift Sequence ********
M107
G1 X1.0 Z7.0 F150.0
G1 X-1.0 Z-6.95 F150.0
;<Delay> 7200
;********** Lift Sequence **********
;********** Pre-Slice Start ********
;Set up any GCode here to be executed before a lift
M106 S25
;********** Pre-Slice End **********
;<Slice> 134 
;<Delay> 8000 
;<Slice> Blank 
;********** Lift Sequence ********
M107
G1 X1.0 Z7.0 F150.0
G1 X-1.0 Z-6.95 F150.0
;<Delay> 7200
;********** Lift Sequence **********
;********** Pre-Slice Start ********
;Set up any GCode here to be executed before a lift
M106 S25
;********** Pre-Slice End **********
;<Slice> 135 
;<Delay> 8000 
;<Slice> Blank 
;********** Lift Sequence ********
M107
G1 X1.0 Z7.0 F150.0
G1 X-1.0 Z-6.95 F150.0
;<Delay> 7200
;********** Lift Sequence **********
;********** Pre-Slice Start ********
;Set up any GCode here to be executed before a lift
M106 S25
;********** Pre-Slice End **********
;<Slice> 136 
;<Delay> 8000 
;<Slice> Blank 
;********** Lift Sequence ********
M107
G1 X1.0 Z7.0 F150.0
G1 X-1.0 Z-6.95 F150.0
;<Delay> 7200
;********** Lift Sequence **********
;********** Pre-Slice Start ********
;Set up any GCode here to be executed before a lift
M106 S25
;********** Pre-Slice End **********
;<Slice> 137 
;<Delay> 8000 
;<Slice> Blank 
;********** Lift Sequence ********
M107
G1 X1.0 Z7.0 F150.0
G1 X-1.0 Z-6.95 F150.0
;<Delay> 7200
;********** Lift Sequence **********
;********** Pre-Slice Start ********
;Set up any GCode here to be executed before a lift
M106 S25
;********** Pre-Slice End **********
;<Slice> 138 
;<Delay> 8000 
;<Slice> Blank 
;********** Lift Sequence ********
M107
G1 X1.0 Z7.0 F150.0
G1 X-1.0 Z-6.95 F150.0
;<Delay> 7200
;********** Lift Sequence **********
;********** Pre-Slice Start ********
;Set up any GCode here to be executed before a lift
M106 S25
;********** Pre-Slice End **********
;<Slice> 139 
;<Delay> 8000 
;<Slice> Blank 
;********** Lift Sequence ********
M107
G1 X1.0 Z7.0 F150.0
G1 X-1.0 Z-6.95 F150.0
;<Delay> 7200
;********** Lift Sequence **********
;********** Pre-Slice Start ********
;Set up any GCode here to be executed before a lift
M106 S25
;********** Pre-Slice End **********
;<Slice> 140 
;<Delay> 8000 
;<Slice> Blank 
;********** Lift Sequence ********
M107
G1 X1.0 Z7.0 F150.0
G1 X-1.0 Z-6.95 F150.0
;<Delay> 7200
;********** Lift Sequence **********
;********** Pre-Slice Start ********
;Set up any GCode here to be executed before a lift
M106 S25
;********** Pre-Slice End **********
;<Slice> 141 
;<Delay> 8000 
;<Slice> Blank 
;********** Lift Sequence ********
M107
G1 X1.0 Z7.0 F150.0
G1 X-1.0 Z-6.95 F150.0
;<Delay> 7200
;********** Lift Sequence **********
;********** Pre-Slice Start ********
;Set up any GCode here to be executed before a lift
M106 S25
;********** Pre-Slice End **********
;<Slice> 142 
;<Delay> 8000 
;<Slice> Blank 
;********** Lift Sequence ********
M107
G1 X1.0 Z7.0 F150.0
G1 X-1.0 Z-6.95 F150.0
;<Delay> 7200
;********** Lift Sequence **********
;********** Pre-Slice Start ********
;Set up any GCode here to be executed before a lift
M106 S25
;********** Pre-Slice End **********
;<Slice> 143 
;<Delay> 8000 
;<Slice> Blank 
;********** Lift Sequence ********
M107
G1 X1.0 Z7.0 F150.0
G1 X-1.0 Z-6.95 F150.0
;<Delay> 7200
;********** Lift Sequence **********
;********** Pre-Slice Start ********
;Set up any GCode here to be executed before a lift
M106 S25
;********** Pre-Slice End **********
;<Slice> 144 
;<Delay> 8000 
;<Slice> Blank 
;********** Lift Sequence ********
M107
G1 X1.0 Z7.0 F150.0
G1 X-1.0 Z-6.95 F150.0
;<Delay> 7200
;********** Lift Sequence **********
;********** Pre-Slice Start ********
;Set up any GCode here to be executed before a lift
M106 S25
;********** Pre-Slice End **********
;<Slice> 145 
;<Delay> 8000 
;<Slice> Blank 
;********** Lift Sequence ********
M107
G1 X1.0 Z7.0 F150.0
G1 X-1.0 Z-6.95 F150.0
;<Delay> 7200
;********** Lift Sequence **********
;********** Pre-Slice Start ********
;Set up any GCode here to be executed before a lift
M106 S25
;********** Pre-Slice End **********
;<Slice> 146 
;<Delay> 8000 
;<Slice> Blank 
;********** Lift Sequence ********
M107
G1 X1.0 Z7.0 F150.0
G1 X-1.0 Z-6.95 F150.0
;<Delay> 7200
;********** Lift Sequence **********
;********** Pre-Slice Start ********
;Set up any GCode here to be executed before a lift
M106 S25
;********** Pre-Slice End **********
;<Slice> 147 
;<Delay> 8000 
;<Slice> Blank 
;********** Lift Sequence ********
M107
G1 X1.0 Z7.0 F150.0
G1 X-1.0 Z-6.95 F150.0
;<Delay> 7200
;********** Lift Sequence **********
;********** Pre-Slice Start ********
;Set up any GCode here to be executed before a lift
M106 S25
;********** Pre-Slice End **********
;<Slice> 148 
;<Delay> 8000 
;<Slice> Blank 
;********** Lift Sequence ********
M107
G1 X1.0 Z7.0 F150.0
G1 X-1.0 Z-6.95 F150.0
;<Delay> 7200
;********** Lift Sequence **********
;********** Pre-Slice Start ********
;Set up any GCode here to be executed before a lift
M106 S25
;********** Pre-Slice End **********
;<Slice> 149 
;<Delay> 8000 
;<Slice> Blank 
;********** Lift Sequence ********
M107
G1 X1.0 Z7.0 F150.0
G1 X-1.0 Z-6.95 F150.0
;<Delay> 7200
;********** Lift Sequence **********
;********** Pre-Slice Start ********
;Set up any GCode here to be executed before a lift
M106 S25
;********** Pre-Slice End **********
;<Slice> 150 
;<Delay> 8000 
;<Slice> Blank 
;********** Lift Sequence ********
M107
G1 X1.0 Z7.0 F150.0
G1 X-1.0 Z-6.95 F150.0
;<Delay> 7200
;********** Lift Sequence **********
;********** Pre-Slice Start ********
;Set up any GCode here to be executed before a lift
M106 S25
;********** Pre-Slice End **********
;<Slice> 151 
;<Delay> 8000 
;<Slice> Blank 
;********** Lift Sequence ********
M107
G1 X1.0 Z7.0 F150.0
G1 X-1.0 Z-6.95 F150.0
;<Delay> 7200
;********** Lift Sequence **********
;********** Pre-Slice Start ********
;Set up any GCode here to be executed before a lift
M106 S25
;********** Pre-Slice End **********
;<Slice> 152 
;<Delay> 8000 
;<Slice> Blank 
;********** Lift Sequence ********
M107
G1 X1.0 Z7.0 F150.0
G1 X-1.0 Z-6.95 F150.0
;<Delay> 7200
;********** Lift Sequence **********
;********** Pre-Slice Start ********
;Set up any GCode here to be executed before a lift
M106 S25
;********** Pre-Slice End **********
;<Slice> 153 
;<Delay> 8000 
;<Slice> Blank 
;********** Lift Sequence ********
M107
G1 X1.0 Z7.0 F150.0
G1 X-1.0 Z-6.95 F150.0
;<Delay> 7200
;********** Lift Sequence **********
;********** Pre-Slice Start ********
;Set up any GCode here to be executed before a lift
M106 S25
;********** Pre-Slice End **********
;<Slice> 154 
;<Delay> 8000 
;<Slice> Blank 
;********** Lift Sequence ********
M107
G1 X1.0 Z7.0 F150.0
G1 X-1.0 Z-6.95 F150.0
;<Delay> 7200
;********** Lift Sequence **********
;********** Pre-Slice Start ********
;Set up any GCode here to be executed before a lift
M106 S25
;********** Pre-Slice End **********
;<Slice> 155 
;<Delay> 8000 
;<Slice> Blank 
;********** Lift Sequence ********
M107
G1 X1.0 Z7.0 F150.0
G1 X-1.0 Z-6.95 F150.0
;<Delay> 7200
;********** Lift Sequence **********
;********** Pre-Slice Start ********
;Set up any GCode here to be executed before a lift
M106 S25
;********** Pre-Slice End **********
;<Slice> 156 
;<Delay> 8000 
;<Slice> Blank 
;********** Lift Sequence ********
M107
G1 X1.0 Z7.0 F150.0
G1 X-1.0 Z-6.95 F150.0
;<Delay> 7200
;********** Lift Sequence **********
;********** Pre-Slice Start ********
;Set up any GCode here to be executed before a lift
M106 S25
;********** Pre-Slice End **********
;<Slice> 157 
;<Delay> 8000 
;<Slice> Blank 
;********** Lift Sequence ********
M107
G1 X1.0 Z7.0 F150.0
G1 X-1.0 Z-6.95 F150.0
;<Delay> 7200
;********** Lift Sequence **********
;********** Pre-Slice Start ********
;Set up any GCode here to be executed before a lift
M106 S25
;********** Pre-Slice End **********
;<Slice> 158 
;<Delay> 8000 
;<Slice> Blank 
;********** Lift Sequence ********
M107
G1 X1.0 Z7.0 F150.0
G1 X-1.0 Z-6.95 F150.0
;<Delay> 7200
;********** Lift Sequence **********
;********** Pre-Slice Start ********
;Set up any GCode here to be executed before a lift
M106 S25
;********** Pre-Slice End **********
;<Slice> 159 
;<Delay> 8000 
;<Slice> Blank 
;********** Lift Sequence ********
M107
G1 X1.0 Z7.0 F150.0
G1 X-1.0 Z-6.95 F150.0
;<Delay> 7200
;********** Lift Sequence **********
;********** Pre-Slice Start ********
;Set up any GCode here to be executed before a lift
M106 S25
;********** Pre-Slice End **********
;<Slice> 160 
;<Delay> 8000 
;<Slice> Blank 
;********** Lift Sequence ********
M107
G1 X1.0 Z7.0 F150.0
G1 X-1.0 Z-6.95 F150.0
;<Delay> 7200
;********** Lift Sequence **********
;********** Pre-Slice Start ********
;Set up any GCode here to be executed before a lift
M106 S25
;********** Pre-Slice End **********
;<Slice> 161 
;<Delay> 8000 
;<Slice> Blank 
;********** Lift Sequence ********
M107
G1 X1.0 Z7.0 F150.0
G1 X-1.0 Z-6.95 F150.0
;<Delay> 7200
;********** Lift Sequence **********
;********** Pre-Slice Start ********
;Set up any GCode here to be executed before a lift
M106 S25
;********** Pre-Slice End **********
;<Slice> 162 
;<Delay> 8000 
;<Slice> Blank 
;********** Lift Sequence ********
M107
G1 X1.0 Z7.0 F150.0
G1 X-1.0 Z-6.95 F150.0
;<Delay> 7200
;********** Lift Sequence **********
;********** Pre-Slice Start ********
;Set up any GCode here to be executed before a lift
M106 S25
;********** Pre-Slice End **********
;<Slice> 163 
;<Delay> 8000 
;<Slice> Blank 
;********** Lift Sequence ********
M107
G1 X1.0 Z7.0 F150.0
G1 X-1.0 Z-6.95 F150.0
;<Delay> 7200
;********** Lift Sequence **********
;********** Pre-Slice Start ********
;Set up any GCode here to be executed before a lift
M106 S25
;********** Pre-Slice End **********
;<Slice> 164 
;<Delay> 8000 
;<Slice> Blank 
;********** Lift Sequence ********
M107
G1 X1.0 Z7.0 F150.0
G1 X-1.0 Z-6.95 F150.0
;<Delay> 7200
;********** Lift Sequence **********
;********** Pre-Slice Start ********
;Set up any GCode here to be executed before a lift
M106 S25
;********** Pre-Slice End **********
;<Slice> 165 
;<Delay> 8000 
;<Slice> Blank 
;********** Lift Sequence ********
M107
G1 X1.0 Z7.0 F150.0
G1 X-1.0 Z-6.95 F150.0
;<Delay> 7200
;********** Lift Sequence **********
;********** Pre-Slice Start ********
;Set up any GCode here to be executed before a lift
M106 S25
;********** Pre-Slice End **********
;<Slice> 166 
;<Delay> 8000 
;<Slice> Blank 
;********** Lift Sequence ********
M107
G1 X1.0 Z7.0 F150.0
G1 X-1.0 Z-6.95 F150.0
;<Delay> 7200
;********** Lift Sequence **********
;********** Pre-Slice Start ********
;Set up any GCode here to be executed before a lift
M106 S25
;********** Pre-Slice End **********
;<Slice> 167 
;<Delay> 8000 
;<Slice> Blank 
;********** Lift Sequence ********
M107
G1 X1.0 Z7.0 F150.0
G1 X-1.0 Z-6.95 F150.0
;<Delay> 7200
;********** Lift Sequence **********
;********** Pre-Slice Start ********
;Set up any GCode here to be executed before a lift
M106 S25
;********** Pre-Slice End **********
;<Slice> 168 
;<Delay> 8000 
;<Slice> Blank 
;********** Lift Sequence ********
M107
G1 X1.0 Z7.0 F150.0
G1 X-1.0 Z-6.95 F150.0
;<Delay> 7200
;********** Lift Sequence **********
;********** Pre-Slice Start ********
;Set up any GCode here to be executed before a lift
M106 S25
;********** Pre-Slice End **********
;<Slice> 169 
;<Delay> 8000 
;<Slice> Blank 
;********** Lift Sequence ********
M107
G1 X1.0 Z7.0 F150.0
G1 X-1.0 Z-6.95 F150.0
;<Delay> 7200
;********** Lift Sequence **********
;********** Pre-Slice Start ********
;Set up any GCode here to be executed before a lift
M106 S25
;********** Pre-Slice End **********
;<Slice> 170 
;<Delay> 8000 
;<Slice> Blank 
;********** Lift Sequence ********
M107
G1 X1.0 Z7.0 F150.0
G1 X-1.0 Z-6.95 F150.0
;<Delay> 7200
;********** Lift Sequence **********
;********** Pre-Slice Start ********
;Set up any GCode here to be executed before a lift
M106 S25
;********** Pre-Slice End **********
;<Slice> 171 
;<Delay> 8000 
;<Slice> Blank 
;********** Lift Sequence ********
M107
G1 X1.0 Z7.0 F150.0
G1 X-1.0 Z-6.95 F150.0
;<Delay> 7200
;********** Lift Sequence **********
;********** Pre-Slice Start ********
;Set up any GCode here to be executed before a lift
M106 S25
;********** Pre-Slice End **********
;<Slice> 172 
;<Delay> 8000 
;<Slice> Blank 
;********** Lift Sequence ********
M107
G1 X1.0 Z7.0 F150.0
G1 X-1.0 Z-6.95 F150.0
;<Delay> 7200
;********** Lift Sequence **********
;********** Pre-Slice Start ********
;Set up any GCode here to be executed before a lift
M106 S25
;********** Pre-Slice End **********
;<Slice> 173 
;<Delay> 8000 
;<Slice> Blank 
;********** Lift Sequence ********
M107
G1 X1.0 Z7.0 F150.0
G1 X-1.0 Z-6.95 F150.0
;<Delay> 7200
;********** Lift Sequence **********
;********** Pre-Slice Start ********
;Set up any GCode here to be executed before a lift
M106 S25
;********** Pre-Slice End **********
;<Slice> 174 
;<Delay> 8000 
;<Slice> Blank 
;********** Lift Sequence ********
M107
G1 X1.0 Z7.0 F150.0
G1 X-1.0 Z-6.95 F150.0
;<Delay> 7200
;********** Lift Sequence **********
;********** Pre-Slice Start ********
;Set up any GCode here to be executed before a lift
M106 S25
;********** Pre-Slice End **********
;<Slice> 175 
;<Delay> 8000 
;<Slice> Blank 
;********** Lift Sequence ********
M107
G1 X1.0 Z7.0 F150.0
G1 X-1.0 Z-6.95 F150.0
;<Delay> 7200
;********** Lift Sequence **********
;********** Pre-Slice Start ********
;Set up any GCode here to be executed before a lift
M106 S25
;********** Pre-Slice End **********
;<Slice> 176 
;<Delay> 8000 
;<Slice> Blank 
;********** Lift Sequence ********
M107
G1 X1.0 Z7.0 F150.0
G1 X-1.0 Z-6.95 F150.0
;<Delay> 7200
;********** Lift Sequence **********
;********** Pre-Slice Start ********
;Set up any GCode here to be executed before a lift
M106 S25
;********** Pre-Slice End **********
;<Slice> 177 
;<Delay> 8000 
;<Slice> Blank 
;********** Lift Sequence ********
M107
G1 X1.0 Z7.0 F150.0
G1 X-1.0 Z-6.95 F150.0
;<Delay> 7200
;********** Lift Sequence **********
;********** Pre-Slice Start ********
;Set up any GCode here to be executed before a lift
M106 S25
;********** Pre-Slice End **********
;<Slice> 178 
;<Delay> 8000 
;<Slice> Blank 
;********** Lift Sequence ********
M107
G1 X1.0 Z7.0 F150.0
G1 X-1.0 Z-6.95 F150.0
;<Delay> 7200
;********** Lift Sequence **********
;********** Pre-Slice Start ********
;Set up any GCode here to be executed before a lift
M106 S25
;********** Pre-Slice End **********
;<Slice> 179 
;<Delay> 8000 
;<Slice> Blank 
;********** Lift Sequence ********
M107
G1 X1.0 Z7.0 F150.0
G1 X-1.0 Z-6.95 F150.0
;<Delay> 7200
;********** Lift Sequence **********
;********** Pre-Slice Start ********
;Set up any GCode here to be executed before a lift
M106 S25
;********** Pre-Slice End **********
;<Slice> 180 
;<Delay> 8000 
;<Slice> Blank 
;********** Lift Sequence ********
M107
G1 X1.0 Z7.0 F150.0
G1 X-1.0 Z-6.95 F150.0
;<Delay> 7200
;********** Lift Sequence **********
;********** Pre-Slice Start ********
;Set up any GCode here to be executed before a lift
M106 S25
;********** Pre-Slice End **********
;<Slice> 181 
;<Delay> 8000 
;<Slice> Blank 
;********** Lift Sequence ********
M107
G1 X1.0 Z7.0 F150.0
G1 X-1.0 Z-6.95 F150.0
;<Delay> 7200
;********** Lift Sequence **********
;********** Pre-Slice Start ********
;Set up any GCode here to be executed before a lift
M106 S25
;********** Pre-Slice End **********
;<Slice> 182 
;<Delay> 8000 
;<Slice> Blank 
;********** Lift Sequence ********
M107
G1 X1.0 Z7.0 F150.0
G1 X-1.0 Z-6.95 F150.0
;<Delay> 7200
;********** Lift Sequence **********
;********** Pre-Slice Start ********
;Set up any GCode here to be executed before a lift
M106 S25
;********** Pre-Slice End **********
;<Slice> 183 
;<Delay> 8000 
;<Slice> Blank 
;********** Lift Sequence ********
M107
G1 X1.0 Z7.0 F150.0
G1 X-1.0 Z-6.95 F150.0
;<Delay> 7200
;********** Lift Sequence **********
;********** Pre-Slice Start ********
;Set up any GCode here to be executed before a lift
M106 S25
;********** Pre-Slice End **********
;<Slice> 184 
;<Delay> 8000 
;<Slice> Blank 
;********** Lift Sequence ********
M107
G1 X1.0 Z7.0 F150.0
G1 X-1.0 Z-6.95 F150.0
;<Delay> 7200
;********** Lift Sequence **********
;********** Pre-Slice Start ********
;Set up any GCode here to be executed before a lift
M106 S25
;********** Pre-Slice End **********
;<Slice> 185 
;<Delay> 8000 
;<Slice> Blank 
;********** Lift Sequence ********
M107
G1 X1.0 Z7.0 F150.0
G1 X-1.0 Z-6.95 F150.0
;<Delay> 7200
;********** Lift Sequence **********
;********** Pre-Slice Start ********
;Set up any GCode here to be executed before a lift
M106 S25
;********** Pre-Slice End **********
;<Slice> 186 
;<Delay> 8000 
;<Slice> Blank 
;********** Lift Sequence ********
M107
G1 X1.0 Z7.0 F150.0
G1 X-1.0 Z-6.95 F150.0
;<Delay> 7200
;********** Lift Sequence **********
;********** Pre-Slice Start ********
;Set up any GCode here to be executed before a lift
M106 S25
;********** Pre-Slice End **********
;<Slice> 187 
;<Delay> 8000 
;<Slice> Blank 
;********** Lift Sequence ********
M107
G1 X1.0 Z7.0 F150.0
G1 X-1.0 Z-6.95 F150.0
;<Delay> 7200
;********** Lift Sequence **********
;********** Pre-Slice Start ********
;Set up any GCode here to be executed before a lift
M106 S25
;********** Pre-Slice End **********
;<Slice> 188 
;<Delay> 8000 
;<Slice> Blank 
;********** Lift Sequence ********
M107
G1 X1.0 Z7.0 F150.0
G1 X-1.0 Z-6.95 F150.0
;<Delay> 7200
;********** Lift Sequence **********
;********** Pre-Slice Start ********
;Set up any GCode here to be executed before a lift
M106 S25
;********** Pre-Slice End **********
;<Slice> 189 
;<Delay> 8000 
;<Slice> Blank 
;********** Lift Sequence ********
M107
G1 X1.0 Z7.0 F150.0
G1 X-1.0 Z-6.95 F150.0
;<Delay> 7200
;********** Lift Sequence **********
;********** Pre-Slice Start ********
;Set up any GCode here to be executed before a lift
M106 S25
;********** Pre-Slice End **********
;<Slice> 190 
;<Delay> 8000 
;<Slice> Blank 
;********** Lift Sequence ********
M107
G1 X1.0 Z7.0 F150.0
G1 X-1.0 Z-6.95 F150.0
;<Delay> 7200
;********** Lift Sequence **********
;********** Pre-Slice Start ********
;Set up any GCode here to be executed before a lift
M106 S25
;********** Pre-Slice End **********
;<Slice> 191 
;<Delay> 8000 
;<Slice> Blank 
;********** Lift Sequence ********
M107
G1 X1.0 Z7.0 F150.0
G1 X-1.0 Z-6.95 F150.0
;<Delay> 7200
;********** Lift Sequence **********
;********** Pre-Slice Start ********
;Set up any GCode here to be executed before a lift
M106 S25
;********** Pre-Slice End **********
;<Slice> 192 
;<Delay> 8000 
;<Slice> Blank 
;********** Lift Sequence ********
M107
G1 X1.0 Z7.0 F150.0
G1 X-1.0 Z-6.95 F150.0
;<Delay> 7200
;********** Lift Sequence **********
;********** Pre-Slice Start ********
;Set up any GCode here to be executed before a lift
M106 S25
;********** Pre-Slice End **********
;<Slice> 193 
;<Delay> 8000 
;<Slice> Blank 
;********** Lift Sequence ********
M107
G1 X1.0 Z7.0 F150.0
G1 X-1.0 Z-6.95 F150.0
;<Delay> 7200
;********** Lift Sequence **********
;********** Pre-Slice Start ********
;Set up any GCode here to be executed before a lift
M106 S25
;********** Pre-Slice End **********
;<Slice> 194 
;<Delay> 8000 
;<Slice> Blank 
;********** Lift Sequence ********
M107
G1 X1.0 Z7.0 F150.0
G1 X-1.0 Z-6.95 F150.0
;<Delay> 7200
;********** Lift Sequence **********
;********** Pre-Slice Start ********
;Set up any GCode here to be executed before a lift
M106 S25
;********** Pre-Slice End **********
;<Slice> 195 
;<Delay> 8000 
;<Slice> Blank 
;********** Lift Sequence ********
M107
G1 X1.0 Z7.0 F150.0
G1 X-1.0 Z-6.95 F150.0
;<Delay> 7200
;********** Lift Sequence **********
;********** Pre-Slice Start ********
;Set up any GCode here to be executed before a lift
M106 S25
;********** Pre-Slice End **********
;<Slice> 196 
;<Delay> 8000 
;<Slice> Blank 
;********** Lift Sequence ********
M107
G1 X1.0 Z7.0 F150.0
G1 X-1.0 Z-6.95 F150.0
;<Delay> 7200
;********** Lift Sequence **********
;********** Pre-Slice Start ********
;Set up any GCode here to be executed before a lift
M106 S25
;********** Pre-Slice End **********
;<Slice> 197 
;<Delay> 8000 
;<Slice> Blank 
;********** Lift Sequence ********
M107
G1 X1.0 Z7.0 F150.0
G1 X-1.0 Z-6.95 F150.0
;<Delay> 7200
;********** Lift Sequence **********
;********** Pre-Slice Start ********
;Set up any GCode here to be executed before a lift
M106 S25
;********** Pre-Slice End **********
;<Slice> 198 
;<Delay> 8000 
;<Slice> Blank 
;********** Lift Sequence ********
M107
G1 X1.0 Z7.0 F150.0
G1 X-1.0 Z-6.95 F150.0
;<Delay> 7200
;********** Lift Sequence **********
;********** Pre-Slice Start ********
;Set up any GCode here to be executed before a lift
M106 S25
;********** Pre-Slice End **********
;<Slice> 199 
;<Delay> 8000 
;<Slice> Blank 
;********** Lift Sequence ********
M107
G1 X1.0 Z7.0 F150.0
G1 X-1.0 Z-6.95 F150.0
;<Delay> 7200
;********** Lift Sequence **********
;********** Pre-Slice Start ********
;Set up any GCode here to be executed before a lift
M106 S25
;********** Pre-Slice End **********
;<Slice> 200 
;<Delay> 8000 
;<Slice> Blank 
;********** Lift Sequence ********
M107
G1 X1.0 Z7.0 F150.0
G1 X-1.0 Z-6.95 F150.0
;<Delay> 7200
;********** Lift Sequence **********
;********** Pre-Slice Start ********
;Set up any GCode here to be executed before a lift
M106 S25
;********** Pre-Slice End **********
;<Slice> 201 
;<Delay> 8000 
;<Slice> Blank 
;********** Lift Sequence ********
M107
G1 X1.0 Z7.0 F150.0
G1 X-1.0 Z-6.95 F150.0
;<Delay> 7200
;********** Lift Sequence **********
;********** Pre-Slice Start ********
;Set up any GCode here to be executed before a lift
M106 S25
;********** Pre-Slice End **********
;<Slice> 202 
;<Delay> 8000 
;<Slice> Blank 
;********** Lift Sequence ********
M107
G1 X1.0 Z7.0 F150.0
G1 X-1.0 Z-6.95 F150.0
;<Delay> 7200
;********** Lift Sequence **********
;********** Pre-Slice Start ********
;Set up any GCode here to be executed before a lift
M106 S25
;********** Pre-Slice End **********
;<Slice> 203 
;<Delay> 8000 
;<Slice> Blank 
;********** Lift Sequence ********
M107
G1 X1.0 Z7.0 F150.0
G1 X-1.0 Z-6.95 F150.0
;<Delay> 7200
;********** Lift Sequence **********
;********** Pre-Slice Start ********
;Set up any GCode here to be executed before a lift
M106 S25
;********** Pre-Slice End **********
;<Slice> 204 
;<Delay> 8000 
;<Slice> Blank 
;********** Lift Sequence ********
M107
G1 X1.0 Z7.0 F150.0
G1 X-1.0 Z-6.95 F150.0
;<Delay> 7200
;********** Lift Sequence **********
;********** Pre-Slice Start ********
;Set up any GCode here to be executed before a lift
M106 S25
;********** Pre-Slice End **********
;<Slice> 205 
;<Delay> 8000 
;<Slice> Blank 
;********** Lift Sequence ********
M107
G1 X1.0 Z7.0 F150.0
G1 X-1.0 Z-6.95 F150.0
;<Delay> 7200
;********** Lift Sequence **********
;********** Pre-Slice Start ********
;Set up any GCode here to be executed before a lift
M106 S25
;********** Pre-Slice End **********
;<Slice> 206 
;<Delay> 8000 
;<Slice> Blank 
;********** Lift Sequence ********
M107
G1 X1.0 Z7.0 F150.0
G1 X-1.0 Z-6.95 F150.0
;<Delay> 7200
;********** Lift Sequence **********
;********** Pre-Slice Start ********
;Set up any GCode here to be executed before a lift
M106 S25
;********** Pre-Slice End **********
;<Slice> 207 
;<Delay> 8000 
;<Slice> Blank 
;********** Lift Sequence ********
M107
G1 X1.0 Z7.0 F150.0
G1 X-1.0 Z-6.95 F150.0
;<Delay> 7200
;********** Lift Sequence **********
;********** Pre-Slice Start ********
;Set up any GCode here to be executed before a lift
M106 S25
;********** Pre-Slice End **********
;<Slice> 208 
;<Delay> 8000 
;<Slice> Blank 
;********** Lift Sequence ********
M107
G1 X1.0 Z7.0 F150.0
G1 X-1.0 Z-6.95 F150.0
;<Delay> 7200
;********** Lift Sequence **********
;********** Pre-Slice Start ********
;Set up any GCode here to be executed before a lift
M106 S25
;********** Pre-Slice End **********
;<Slice> 209 
;<Delay> 8000 
;<Slice> Blank 
;********** Lift Sequence ********
M107
G1 X1.0 Z7.0 F150.0
G1 X-1.0 Z-6.95 F150.0
;<Delay> 7200
;********** Lift Sequence **********
;********** Pre-Slice Start ********
;Set up any GCode here to be executed before a lift
M106 S25
;********** Pre-Slice End **********
;<Slice> 210 
;<Delay> 8000 
;<Slice> Blank 
;********** Lift Sequence ********
M107
G1 X1.0 Z7.0 F150.0
G1 X-1.0 Z-6.95 F150.0
;<Delay> 7200
;********** Lift Sequence **********
;********** Pre-Slice Start ********
;Set up any GCode here to be executed before a lift
M106 S25
;********** Pre-Slice End **********
;<Slice> 211 
;<Delay> 8000 
;<Slice> Blank 
;********** Lift Sequence ********
M107
G1 X1.0 Z7.0 F150.0
G1 X-1.0 Z-6.95 F150.0
;<Delay> 7200
;********** Lift Sequence **********
;********** Pre-Slice Start ********
;Set up any GCode here to be executed before a lift
M106 S25
;********** Pre-Slice End **********
;<Slice> 212 
;<Delay> 8000 
;<Slice> Blank 
;********** Lift Sequence ********
M107
G1 X1.0 Z7.0 F150.0
G1 X-1.0 Z-6.95 F150.0
;<Delay> 7200
;********** Lift Sequence **********
;********** Pre-Slice Start ********
;Set up any GCode here to be executed before a lift
M106 S25
;********** Pre-Slice End **********
;<Slice> 213 
;<Delay> 8000 
;<Slice> Blank 
;********** Lift Sequence ********
M107
G1 X1.0 Z7.0 F150.0
G1 X-1.0 Z-6.95 F150.0
;<Delay> 7200
;********** Lift Sequence **********
;********** Pre-Slice Start ********
;Set up any GCode here to be executed before a lift
M106 S25
;********** Pre-Slice End **********
;<Slice> 214 
;<Delay> 8000 
;<Slice> Blank 
;********** Lift Sequence ********
M107
G1 X1.0 Z7.0 F150.0
G1 X-1.0 Z-6.95 F150.0
;<Delay> 7200
;********** Lift Sequence **********
;********** Pre-Slice Start ********
;Set up any GCode here to be executed before a lift
M106 S25
;********** Pre-Slice End **********
;<Slice> 215 
;<Delay> 8000 
;<Slice> Blank 
;********** Lift Sequence ********
M107
G1 X1.0 Z7.0 F150.0
G1 X-1.0 Z-6.95 F150.0
;<Delay> 7200
;********** Lift Sequence **********
;********** Pre-Slice Start ********
;Set up any GCode here to be executed before a lift
M106 S25
;********** Pre-Slice End **********
;<Slice> 216 
;<Delay> 8000 
;<Slice> Blank 
;********** Lift Sequence ********
M107
G1 X1.0 Z7.0 F150.0
G1 X-1.0 Z-6.95 F150.0
;<Delay> 7200
;********** Lift Sequence **********
;********** Pre-Slice Start ********
;Set up any GCode here to be executed before a lift
M106 S25
;********** Pre-Slice End **********
;<Slice> 217 
;<Delay> 8000 
;<Slice> Blank 
;********** Lift Sequence ********
M107
G1 X1.0 Z7.0 F150.0
G1 X-1.0 Z-6.95 F150.0
;<Delay> 7200
;********** Lift Sequence **********
;********** Pre-Slice Start ********
;Set up any GCode here to be executed before a lift
M106 S25
;********** Pre-Slice End **********
;<Slice> 218 
;<Delay> 8000 
;<Slice> Blank 
;********** Lift Sequence ********
M107
G1 X1.0 Z7.0 F150.0
G1 X-1.0 Z-6.95 F150.0
;<Delay> 7200
;********** Lift Sequence **********
;********** Pre-Slice Start ********
;Set up any GCode here to be executed before a lift
M106 S25
;********** Pre-Slice End **********
;<Slice> 219 
;<Delay> 8000 
;<Slice> Blank 
;********** Lift Sequence ********
M107
G1 X1.0 Z7.0 F150.0
G1 X-1.0 Z-6.95 F150.0
;<Delay> 7200
;********** Lift Sequence **********
;********** Pre-Slice Start ********
;Set up any GCode here to be executed before a lift
M106 S25
;********** Pre-Slice End **********
;<Slice> 220 
;<Delay> 8000 
;<Slice> Blank 
;********** Lift Sequence ********
M107
G1 X1.0 Z7.0 F150.0
G1 X-1.0 Z-6.95 F150.0
;<Delay> 7200
;********** Lift Sequence **********
;********** Pre-Slice Start ********
;Set up any GCode here to be executed before a lift
M106 S25
;********** Pre-Slice End **********
;<Slice> 221 
;<Delay> 8000 
;<Slice> Blank 
;********** Lift Sequence ********
M107
G1 X1.0 Z7.0 F150.0
G1 X-1.0 Z-6.95 F150.0
;<Delay> 7200
;********** Lift Sequence **********
;********** Pre-Slice Start ********
;Set up any GCode here to be executed before a lift
M106 S25
;********** Pre-Slice End **********
;<Slice> 222 
;<Delay> 8000 
;<Slice> Blank 
;********** Lift Sequence ********
M107
G1 X1.0 Z7.0 F150.0
G1 X-1.0 Z-6.95 F150.0
;<Delay> 7200
;********** Lift Sequence **********
;********** Pre-Slice Start ********
;Set up any GCode here to be executed before a lift
M106 S25
;********** Pre-Slice End **********
;<Slice> 223 
;<Delay> 8000 
;<Slice> Blank 
;********** Lift Sequence ********
M107
G1 X1.0 Z7.0 F150.0
G1 X-1.0 Z-6.95 F150.0
;<Delay> 7200
;********** Lift Sequence **********
;********** Pre-Slice Start ********
;Set up any GCode here to be executed before a lift
M106 S25
;********** Pre-Slice End **********
;<Slice> 224 
;<Delay> 8000 
;<Slice> Blank 
;********** Lift Sequence ********
M107
G1 X1.0 Z7.0 F150.0
G1 X-1.0 Z-6.95 F150.0
;<Delay> 7200
;********** Lift Sequence **********
;********** Pre-Slice Start ********
;Set up any GCode here to be executed before a lift
M106 S25
;********** Pre-Slice End **********
;<Slice> 225 
;<Delay> 8000 
;<Slice> Blank 
;********** Lift Sequence ********
M107
G1 X1.0 Z7.0 F150.0
G1 X-1.0 Z-6.95 F150.0
;<Delay> 7200
;********** Lift Sequence **********
;********** Pre-Slice Start ********
;Set up any GCode here to be executed before a lift
M106 S25
;********** Pre-Slice End **********
;<Slice> 226 
;<Delay> 8000 
;<Slice> Blank 
;********** Lift Sequence ********
M107
G1 X1.0 Z7.0 F150.0
G1 X-1.0 Z-6.95 F150.0
;<Delay> 7200
;********** Lift Sequence **********
;********** Pre-Slice Start ********
;Set up any GCode here to be executed before a lift
M106 S25
;********** Pre-Slice End **********
;<Slice> 227 
;<Delay> 8000 
;<Slice> Blank 
;********** Lift Sequence ********
M107
G1 X1.0 Z7.0 F150.0
G1 X-1.0 Z-6.95 F150.0
;<Delay> 7200
;********** Lift Sequence **********
;********** Pre-Slice Start ********
;Set up any GCode here to be executed before a lift
M106 S25
;********** Pre-Slice End **********
;<Slice> 228 
;<Delay> 8000 
;<Slice> Blank 
;********** Lift Sequence ********
M107
G1 X1.0 Z7.0 F150.0
G1 X-1.0 Z-6.95 F150.0
;<Delay> 7200
;********** Lift Sequence **********
;********** Pre-Slice Start ********
;Set up any GCode here to be executed before a lift
M106 S25
;********** Pre-Slice End **********
;<Slice> 229 
;<Delay> 8000 
;<Slice> Blank 
;********** Lift Sequence ********
M107
G1 X1.0 Z7.0 F150.0
G1 X-1.0 Z-6.95 F150.0
;<Delay> 7200
;********** Lift Sequence **********
;********** Pre-Slice Start ********
;Set up any GCode here to be executed before a lift
M106 S25
;********** Pre-Slice End **********
;<Slice> 230 
;<Delay> 8000 
;<Slice> Blank 
;********** Lift Sequence ********
M107
G1 X1.0 Z7.0 F150.0
G1 X-1.0 Z-6.95 F150.0
;<Delay> 7200
;********** Lift Sequence **********
;********** Pre-Slice Start ********
;Set up any GCode here to be executed before a lift
M106 S25
;********** Pre-Slice End **********
;<Slice> 231 
;<Delay> 8000 
;<Slice> Blank 
;********** Lift Sequence ********
M107
G1 X1.0 Z7.0 F150.0
G1 X-1.0 Z-6.95 F150.0
;<Delay> 7200
;********** Lift Sequence **********
;********** Pre-Slice Start ********
;Set up any GCode here to be executed before a lift
M106 S25
;********** Pre-Slice End **********
;<Slice> 232 
;<Delay> 8000 
;<Slice> Blank 
;********** Lift Sequence ********
M107
G1 X1.0 Z7.0 F150.0
G1 X-1.0 Z-6.95 F150.0
;<Delay> 7200
;********** Lift Sequence **********
;********** Pre-Slice Start ********
;Set up any GCode here to be executed before a lift
M106 S25
;********** Pre-Slice End **********
;<Slice> 233 
;<Delay> 8000 
;<Slice> Blank 
;********** Lift Sequence ********
M107
G1 X1.0 Z7.0 F150.0
G1 X-1.0 Z-6.95 F150.0
;<Delay> 7200
;********** Lift Sequence **********
;********** Pre-Slice Start ********
;Set up any GCode here to be executed before a lift
M106 S25
;********** Pre-Slice End **********
;<Slice> 234 
;<Delay> 8000 
;<Slice> Blank 
;********** Lift Sequence ********
M107
G1 X1.0 Z7.0 F150.0
G1 X-1.0 Z-6.95 F150.0
;<Delay> 7200
;********** Lift Sequence **********
;********** Pre-Slice Start ********
;Set up any GCode here to be executed before a lift
M106 S25
;********** Pre-Slice End **********
;<Slice> 235 
;<Delay> 8000 
;<Slice> Blank 
;********** Lift Sequence ********
M107
G1 X1.0 Z7.0 F150.0
G1 X-1.0 Z-6.95 F150.0
;<Delay> 7200
;********** Lift Sequence **********
;********** Pre-Slice Start ********
;Set up any GCode here to be executed before a lift
M106 S25
;********** Pre-Slice End **********
;<Slice> 236 
;<Delay> 8000 
;<Slice> Blank 
;********** Lift Sequence ********
M107
G1 X1.0 Z7.0 F150.0
G1 X-1.0 Z-6.95 F150.0
;<Delay> 7200
;********** Lift Sequence **********
;********** Pre-Slice Start ********
;Set up any GCode here to be executed before a lift
M106 S25
;********** Pre-Slice End **********
;<Slice> 237 
;<Delay> 8000 
;<Slice> Blank 
;********** Lift Sequence ********
M107
G1 X1.0 Z7.0 F150.0
G1 X-1.0 Z-6.95 F150.0
;<Delay> 7200
;********** Lift Sequence **********
;********** Pre-Slice Start ********
;Set up any GCode here to be executed before a lift
M106 S25
;********** Pre-Slice End **********
;<Slice> 238 
;<Delay> 8000 
;<Slice> Blank 
;********** Lift Sequence ********
M107
G1 X1.0 Z7.0 F150.0
G1 X-1.0 Z-6.95 F150.0
;<Delay> 7200
;********** Lift Sequence **********
;********** Pre-Slice Start ********
;Set up any GCode here to be executed before a lift
M106 S25
;********** Pre-Slice End **********
;<Slice> 239 
;<Delay> 8000 
;<Slice> Blank 
;********** Lift Sequence ********
M107
G1 X1.0 Z7.0 F150.0
G1 X-1.0 Z-6.95 F150.0
;<Delay> 7200
;********** Lift Sequence **********
;********** Pre-Slice Start ********
;Set up any GCode here to be executed before a lift
M106 S25
;********** Pre-Slice End **********
;<Slice> 240 
;<Delay> 8000 
;<Slice> Blank 
;********** Lift Sequence ********
M107
G1 X1.0 Z7.0 F150.0
G1 X-1.0 Z-6.95 F150.0
;<Delay> 7200
;********** Lift Sequence **********
;********** Pre-Slice Start ********
;Set up any GCode here to be executed before a lift
M106 S25
;********** Pre-Slice End **********
;<Slice> 241 
;<Delay> 8000 
;<Slice> Blank 
;********** Lift Sequence ********
M107
G1 X1.0 Z7.0 F150.0
G1 X-1.0 Z-6.95 F150.0
;<Delay> 7200
;********** Lift Sequence **********
;********** Pre-Slice Start ********
;Set up any GCode here to be executed before a lift
M106 S25
;********** Pre-Slice End **********
;<Slice> 242 
;<Delay> 8000 
;<Slice> Blank 
;********** Lift Sequence ********
M107
G1 X1.0 Z7.0 F150.0
G1 X-1.0 Z-6.95 F150.0
;<Delay> 7200
;********** Lift Sequence **********
;********** Pre-Slice Start ********
;Set up any GCode here to be executed before a lift
M106 S25
;********** Pre-Slice End **********
;<Slice> 243 
;<Delay> 8000 
;<Slice> Blank 
;********** Lift Sequence ********
M107
G1 X1.0 Z7.0 F150.0
G1 X-1.0 Z-6.95 F150.0
;<Delay> 7200
;********** Lift Sequence **********
;********** Pre-Slice Start ********
;Set up any GCode here to be executed before a lift
M106 S25
;********** Pre-Slice End **********
;<Slice> 244 
;<Delay> 8000 
;<Slice> Blank 
;********** Lift Sequence ********
M107
G1 X1.0 Z7.0 F150.0
G1 X-1.0 Z-6.95 F150.0
;<Delay> 7200
;********** Lift Sequence **********
;********** Pre-Slice Start ********
;Set up any GCode here to be executed before a lift
M106 S25
;********** Pre-Slice End **********
;<Slice> 245 
;<Delay> 8000 
;<Slice> Blank 
;********** Lift Sequence ********
M107
G1 X1.0 Z7.0 F150.0
G1 X-1.0 Z-6.95 F150.0
;<Delay> 7200
;********** Lift Sequence **********
;********** Pre-Slice Start ********
;Set up any GCode here to be executed before a lift
M106 S25
;********** Pre-Slice End **********
;<Slice> 246 
;<Delay> 8000 
;<Slice> Blank 
;********** Lift Sequence ********
M107
G1 X1.0 Z7.0 F150.0
G1 X-1.0 Z-6.95 F150.0
;<Delay> 7200
;********** Lift Sequence **********
;********** Pre-Slice Start ********
;Set up any GCode here to be executed before a lift
M106 S25
;********** Pre-Slice End **********
;<Slice> 247 
;<Delay> 8000 
;<Slice> Blank 
;********** Lift Sequence ********
M107
G1 X1.0 Z7.0 F150.0
G1 X-1.0 Z-6.95 F150.0
;<Delay> 7200
;********** Lift Sequence **********
;********** Pre-Slice Start ********
;Set up any GCode here to be executed before a lift
M106 S25
;********** Pre-Slice End **********
;<Slice> 248 
;<Delay> 8000 
;<Slice> Blank 
;********** Lift Sequence ********
M107
G1 X1.0 Z7.0 F150.0
G1 X-1.0 Z-6.95 F150.0
;<Delay> 7200
;********** Lift Sequence **********
;********** Pre-Slice Start ********
;Set up any GCode here to be executed before a lift
M106 S25
;********** Pre-Slice End **********
;<Slice> 249 
;<Delay> 8000 
;<Slice> Blank 
;********** Lift Sequence ********
M107
G1 X1.0 Z7.0 F150.0
G1 X-1.0 Z-6.95 F150.0
;<Delay> 7200
;********** Lift Sequence **********
;********** Pre-Slice Start ********
;Set up any GCode here to be executed before a lift
M106 S25
;********** Pre-Slice End **********
;<Slice> 250 
;<Delay> 8000 
;<Slice> Blank 
;********** Lift Sequence ********
M107
G1 X1.0 Z7.0 F150.0
G1 X-1.0 Z-6.95 F150.0
;<Delay> 7200
;********** Lift Sequence **********
;********** Pre-Slice Start ********
;Set up any GCode here to be executed before a lift
M106 S25
;********** Pre-Slice End **********
;<Slice> 251 
;<Delay> 8000 
;<Slice> Blank 
;********** Lift Sequence ********
M107
G1 X1.0 Z7.0 F150.0
G1 X-1.0 Z-6.95 F150.0
;<Delay> 7200
;********** Lift Sequence **********
;********** Pre-Slice Start ********
;Set up any GCode here to be executed before a lift
M106 S25
;********** Pre-Slice End **********
;<Slice> 252 
;<Delay> 8000 
;<Slice> Blank 
;********** Lift Sequence ********
M107
G1 X1.0 Z7.0 F150.0
G1 X-1.0 Z-6.95 F150.0
;<Delay> 7200
;********** Lift Sequence **********
;********** Pre-Slice Start ********
;Set up any GCode here to be executed before a lift
M106 S25
;********** Pre-Slice End **********
;<Slice> 253 
;<Delay> 8000 
;<Slice> Blank 
;********** Lift Sequence ********
M107
G1 X1.0 Z7.0 F150.0
G1 X-1.0 Z-6.95 F150.0
;<Delay> 7200
;********** Lift Sequence **********
;********** Pre-Slice Start ********
;Set up any GCode here to be executed before a lift
M106 S25
;********** Pre-Slice End **********
;<Slice> 254 
;<Delay> 8000 
;<Slice> Blank 
;********** Lift Sequence ********
M107
G1 X1.0 Z7.0 F150.0
G1 X-1.0 Z-6.95 F150.0
;<Delay> 7200
;********** Lift Sequence **********
;********** Pre-Slice Start ********
;Set up any GCode here to be executed before a lift
M106 S25
;********** Pre-Slice End **********
;<Slice> 255 
;<Delay> 8000 
;<Slice> Blank 
;********** Lift Sequence ********
M107
G1 X1.0 Z7.0 F150.0
G1 X-1.0 Z-6.95 F150.0
;<Delay> 7200
;********** Lift Sequence **********
;********** Pre-Slice Start ********
;Set up any GCode here to be executed before a lift
M106 S25
;********** Pre-Slice End **********
;<Slice> 256 
;<Delay> 8000 
;<Slice> Blank 
;********** Lift Sequence ********
M107
G1 X1.0 Z7.0 F150.0
G1 X-1.0 Z-6.95 F150.0
;<Delay> 7200
;********** Lift Sequence **********
;********** Pre-Slice Start ********
;Set up any GCode here to be executed before a lift
M106 S25
;********** Pre-Slice End **********
;<Slice> 257 
;<Delay> 8000 
;<Slice> Blank 
;********** Lift Sequence ********
M107
G1 X1.0 Z7.0 F150.0
G1 X-1.0 Z-6.95 F150.0
;<Delay> 7200
;********** Lift Sequence **********
;********** Pre-Slice Start ********
;Set up any GCode here to be executed before a lift
M106 S25
;********** Pre-Slice End **********
;<Slice> 258 
;<Delay> 8000 
;<Slice> Blank 
;********** Lift Sequence ********
M107
G1 X1.0 Z7.0 F150.0
G1 X-1.0 Z-6.95 F150.0
;<Delay> 7200
;********** Lift Sequence **********
;********** Pre-Slice Start ********
;Set up any GCode here to be executed before a lift
M106 S25
;********** Pre-Slice End **********
;<Slice> 259 
;<Delay> 8000 
;<Slice> Blank 
;********** Lift Sequence ********
M107
G1 X1.0 Z7.0 F150.0
G1 X-1.0 Z-6.95 F150.0
;<Delay> 7200
;********** Lift Sequence **********
;********** Pre-Slice Start ********
;Set up any GCode here to be executed before a lift
M106 S25
;********** Pre-Slice End **********
;<Slice> 260 
;<Delay> 8000 
;<Slice> Blank 
;********** Lift Sequence ********
M107
G1 X1.0 Z7.0 F150.0
G1 X-1.0 Z-6.95 F150.0
;<Delay> 7200
;********** Lift Sequence **********
;********** Pre-Slice Start ********
;Set up any GCode here to be executed before a lift
M106 S25
;********** Pre-Slice End **********
;<Slice> 261 
;<Delay> 8000 
;<Slice> Blank 
;********** Lift Sequence ********
M107
G1 X1.0 Z7.0 F150.0
G1 X-1.0 Z-6.95 F150.0
;<Delay> 7200
;********** Lift Sequence **********
;********** Pre-Slice Start ********
;Set up any GCode here to be executed before a lift
M106 S25
;********** Pre-Slice End **********
;<Slice> 262 
;<Delay> 8000 
;<Slice> Blank 
;********** Lift Sequence ********
M107
G1 X1.0 Z7.0 F150.0
G1 X-1.0 Z-6.95 F150.0
;<Delay> 7200
;********** Lift Sequence **********
;********** Pre-Slice Start ********
;Set up any GCode here to be executed before a lift
M106 S25
;********** Pre-Slice End **********
;<Slice> 263 
;<Delay> 8000 
;<Slice> Blank 
;********** Lift Sequence ********
M107
G1 X1.0 Z7.0 F150.0
G1 X-1.0 Z-6.95 F150.0
;<Delay> 7200
;********** Lift Sequence **********
;********** Pre-Slice Start ********
;Set up any GCode here to be executed before a lift
M106 S25
;********** Pre-Slice End **********
;<Slice> 264 
;<Delay> 8000 
;<Slice> Blank 
;********** Lift Sequence ********
M107
G1 X1.0 Z7.0 F150.0
G1 X-1.0 Z-6.95 F150.0
;<Delay> 7200
;********** Lift Sequence **********
;********** Pre-Slice Start ********
;Set up any GCode here to be executed before a lift
M106 S25
;********** Pre-Slice End **********
;<Slice> 265 
;<Delay> 8000 
;<Slice> Blank 
;********** Lift Sequence ********
M107
G1 X1.0 Z7.0 F150.0
G1 X-1.0 Z-6.95 F150.0
;<Delay> 7200
;********** Lift Sequence **********
;********** Pre-Slice Start ********
;Set up any GCode here to be executed before a lift
M106 S25
;********** Pre-Slice End **********
;<Slice> 266 
;<Delay> 8000 
;<Slice> Blank 
;********** Lift Sequence ********
M107
G1 X1.0 Z7.0 F150.0
G1 X-1.0 Z-6.95 F150.0
;<Delay> 7200
;********** Lift Sequence **********
;********** Pre-Slice Start ********
;Set up any GCode here to be executed before a lift
M106 S25
;********** Pre-Slice End **********
;<Slice> 267 
;<Delay> 8000 
;<Slice> Blank 
;********** Lift Sequence ********
M107
G1 X1.0 Z7.0 F150.0
G1 X-1.0 Z-6.95 F150.0
;<Delay> 7200
;********** Lift Sequence **********
;********** Pre-Slice Start ********
;Set up any GCode here to be executed before a lift
M106 S25
;********** Pre-Slice End **********
;<Slice> 268 
;<Delay> 8000 
;<Slice> Blank 
;********** Lift Sequence ********
M107
G1 X1.0 Z7.0 F150.0
G1 X-1.0 Z-6.95 F150.0
;<Delay> 7200
;********** Lift Sequence **********
;********** Pre-Slice Start ********
;Set up any GCode here to be executed before a lift
M106 S25
;********** Pre-Slice End **********
;<Slice> 269 
;<Delay> 8000 
;<Slice> Blank 
;********** Lift Sequence ********
M107
G1 X1.0 Z7.0 F150.0
G1 X-1.0 Z-6.95 F150.0
;<Delay> 7200
;********** Lift Sequence **********
;********** Pre-Slice Start ********
;Set up any GCode here to be executed before a lift
M106 S25
;********** Pre-Slice End **********
;<Slice> 270 
;<Delay> 8000 
;<Slice> Blank 
;********** Lift Sequence ********
M107
G1 X1.0 Z7.0 F150.0
G1 X-1.0 Z-6.95 F150.0
;<Delay> 7200
;********** Lift Sequence **********
;********** Pre-Slice Start ********
;Set up any GCode here to be executed before a lift
M106 S25
;********** Pre-Slice End **********
;<Slice> 271 
;<Delay> 8000 
;<Slice> Blank 
;********** Lift Sequence ********
M107
G1 X1.0 Z7.0 F150.0
G1 X-1.0 Z-6.95 F150.0
;<Delay> 7200
;********** Lift Sequence **********
;********** Pre-Slice Start ********
;Set up any GCode here to be executed before a lift
M106 S25
;********** Pre-Slice End **********
;<Slice> 272 
;<Delay> 8000 
;<Slice> Blank 
;********** Lift Sequence ********
M107
G1 X1.0 Z7.0 F150.0
G1 X-1.0 Z-6.95 F150.0
;<Delay> 7200
;********** Lift Sequence **********
;********** Pre-Slice Start ********
;Set up any GCode here to be executed before a lift
M106 S25
;********** Pre-Slice End **********
;<Slice> 273 
;<Delay> 8000 
;<Slice> Blank 
;********** Lift Sequence ********
M107
G1 X1.0 Z7.0 F150.0
G1 X-1.0 Z-6.95 F150.0
;<Delay> 7200
;********** Lift Sequence **********
;********** Pre-Slice Start ********
;Set up any GCode here to be executed before a lift
M106 S25
;********** Pre-Slice End **********
;<Slice> 274 
;<Delay> 8000 
;<Slice> Blank 
;********** Lift Sequence ********
M107
G1 X1.0 Z7.0 F150.0
G1 X-1.0 Z-6.95 F150.0
;<Delay> 7200
;********** Lift Sequence **********
;********** Pre-Slice Start ********
;Set up any GCode here to be executed before a lift
M106 S25
;********** Pre-Slice End **********
;<Slice> 275 
;<Delay> 8000 
;<Slice> Blank 
;********** Lift Sequence ********
M107
G1 X1.0 Z7.0 F150.0
G1 X-1.0 Z-6.95 F150.0
;<Delay> 7200
;********** Lift Sequence **********
;********** Pre-Slice Start ********
;Set up any GCode here to be executed before a lift
M106 S25
;********** Pre-Slice End **********
;<Slice> 276 
;<Delay> 8000 
;<Slice> Blank 
;********** Lift Sequence ********
M107
G1 X1.0 Z7.0 F150.0
G1 X-1.0 Z-6.95 F150.0
;<Delay> 7200
;********** Lift Sequence **********
;********** Pre-Slice Start ********
;Set up any GCode here to be executed before a lift
M106 S25
;********** Pre-Slice End **********
;<Slice> 277 
;<Delay> 8000 
;<Slice> Blank 
;********** Lift Sequence ********
M107
G1 X1.0 Z7.0 F150.0
G1 X-1.0 Z-6.95 F150.0
;<Delay> 7200
;********** Lift Sequence **********
;********** Pre-Slice Start ********
;Set up any GCode here to be executed before a lift
M106 S25
;********** Pre-Slice End **********
;<Slice> 278 
;<Delay> 8000 
;<Slice> Blank 
;********** Lift Sequence ********
M107
G1 X1.0 Z7.0 F150.0
G1 X-1.0 Z-6.95 F150.0
;<Delay> 7200
;********** Lift Sequence **********
;********** Pre-Slice Start ********
;Set up any GCode here to be executed before a lift
M106 S25
;********** Pre-Slice End **********
;<Slice> 279 
;<Delay> 8000 
;<Slice> Blank 
;********** Lift Sequence ********
M107
G1 X1.0 Z7.0 F150.0
G1 X-1.0 Z-6.95 F150.0
;<Delay> 7200
;********** Lift Sequence **********
;********** Pre-Slice Start ********
;Set up any GCode here to be executed before a lift
M106 S25
;********** Pre-Slice End **********
;<Slice> 280 
;<Delay> 8000 
;<Slice> Blank 
;********** Lift Sequence ********
M107
G1 X1.0 Z7.0 F150.0
G1 X-1.0 Z-6.95 F150.0
;<Delay> 7200
;********** Lift Sequence **********
;********** Pre-Slice Start ********
;Set up any GCode here to be executed before a lift
M106 S25
;********** Pre-Slice End **********
;<Slice> 281 
;<Delay> 8000 
;<Slice> Blank 
;********** Lift Sequence ********
M107
G1 X1.0 Z7.0 F150.0
G1 X-1.0 Z-6.95 F150.0
;<Delay> 7200
;********** Lift Sequence **********
;********** Pre-Slice Start ********
;Set up any GCode here to be executed before a lift
M106 S25
;********** Pre-Slice End **********
;<Slice> 282 
;<Delay> 8000 
;<Slice> Blank 
;********** Lift Sequence ********
M107
G1 X1.0 Z7.0 F150.0
G1 X-1.0 Z-6.95 F150.0
;<Delay> 7200
;********** Lift Sequence **********
;********** Pre-Slice Start ********
;Set up any GCode here to be executed before a lift
M106 S25
;********** Pre-Slice End **********
;<Slice> 283 
;<Delay> 8000 
;<Slice> Blank 
;********** Lift Sequence ********
M107
G1 X1.0 Z7.0 F150.0
G1 X-1.0 Z-6.95 F150.0
;<Delay> 7200
;********** Lift Sequence **********
;********** Pre-Slice Start ********
;Set up any GCode here to be executed before a lift
M106 S25
;********** Pre-Slice End **********
;<Slice> 284 
;<Delay> 8000 
;<Slice> Blank 
;********** Lift Sequence ********
M107
G1 X1.0 Z7.0 F150.0
G1 X-1.0 Z-6.95 F150.0
;<Delay> 7200
;********** Lift Sequence **********
;********** Pre-Slice Start ********
;Set up any GCode here to be executed before a lift
M106 S25
;********** Pre-Slice End **********
;<Slice> 285 
;<Delay> 8000 
;<Slice> Blank 
;********** Lift Sequence ********
M107
G1 X1.0 Z7.0 F150.0
G1 X-1.0 Z-6.95 F150.0
;<Delay> 7200
;********** Lift Sequence **********
;********** Pre-Slice Start ********
;Set up any GCode here to be executed before a lift
M106 S25
;********** Pre-Slice End **********
;<Slice> 286 
;<Delay> 8000 
;<Slice> Blank 
;********** Lift Sequence ********
M107
G1 X1.0 Z7.0 F150.0
G1 X-1.0 Z-6.95 F150.0
;<Delay> 7200
;********** Lift Sequence **********
;********** Pre-Slice Start ********
;Set up any GCode here to be executed before a lift
M106 S25
;********** Pre-Slice End **********
;<Slice> 287 
;<Delay> 8000 
;<Slice> Blank 
;********** Lift Sequence ********
M107
G1 X1.0 Z7.0 F150.0
G1 X-1.0 Z-6.95 F150.0
;<Delay> 7200
;********** Lift Sequence **********
;********** Pre-Slice Start ********
;Set up any GCode here to be executed before a lift
M106 S25
;********** Pre-Slice End **********
;<Slice> 288 
;<Delay> 8000 
;<Slice> Blank 
;********** Lift Sequence ********
M107
G1 X1.0 Z7.0 F150.0
G1 X-1.0 Z-6.95 F150.0
;<Delay> 7200
;********** Lift Sequence **********
;********** Pre-Slice Start ********
;Set up any GCode here to be executed before a lift
M106 S25
;********** Pre-Slice End **********
;<Slice> 289 
;<Delay> 8000 
;<Slice> Blank 
;********** Lift Sequence ********
M107
G1 X1.0 Z7.0 F150.0
G1 X-1.0 Z-6.95 F150.0
;<Delay> 7200
;********** Lift Sequence **********
;********** Pre-Slice Start ********
;Set up any GCode here to be executed before a lift
M106 S25
;********** Pre-Slice End **********
;<Slice> 290 
;<Delay> 8000 
;<Slice> Blank 
;********** Lift Sequence ********
M107
G1 X1.0 Z7.0 F150.0
G1 X-1.0 Z-6.95 F150.0
;<Delay> 7200
;********** Lift Sequence **********
;********** Pre-Slice Start ********
;Set up any GCode here to be executed before a lift
M106 S25
;********** Pre-Slice End **********
;<Slice> 291 
;<Delay> 8000 
;<Slice> Blank 
;********** Lift Sequence ********
M107
G1 X1.0 Z7.0 F150.0
G1 X-1.0 Z-6.95 F150.0
;<Delay> 7200
;********** Lift Sequence **********
;********** Pre-Slice Start ********
;Set up any GCode here to be executed before a lift
M106 S25
;********** Pre-Slice End **********
;<Slice> 292 
;<Delay> 8000 
;<Slice> Blank 
;********** Lift Sequence ********
M107
G1 X1.0 Z7.0 F150.0
G1 X-1.0 Z-6.95 F150.0
;<Delay> 7200
;********** Lift Sequence **********
;********** Pre-Slice Start ********
;Set up any GCode here to be executed before a lift
M106 S25
;********** Pre-Slice End **********
;<Slice> 293 
;<Delay> 8000 
;<Slice> Blank 
;********** Lift Sequence ********
M107
G1 X1.0 Z7.0 F150.0
G1 X-1.0 Z-6.95 F150.0
;<Delay> 7200
;********** Lift Sequence **********
;********** Pre-Slice Start ********
;Set up any GCode here to be executed before a lift
M106 S25
;********** Pre-Slice End **********
;<Slice> 294 
;<Delay> 8000 
;<Slice> Blank 
;********** Lift Sequence ********
M107
G1 X1.0 Z7.0 F150.0
G1 X-1.0 Z-6.95 F150.0
;<Delay> 7200
;********** Lift Sequence **********
;********** Pre-Slice Start ********
;Set up any GCode here to be executed before a lift
M106 S25
;********** Pre-Slice End **********
;<Slice> 295 
;<Delay> 8000 
;<Slice> Blank 
;********** Lift Sequence ********
M107
G1 X1.0 Z7.0 F150.0
G1 X-1.0 Z-6.95 F150.0
;<Delay> 7200
;********** Lift Sequence **********
;********** Pre-Slice Start ********
;Set up any GCode here to be executed before a lift
M106 S25
;********** Pre-Slice End **********
;<Slice> 296 
;<Delay> 8000 
;<Slice> Blank 
;********** Lift Sequence ********
M107
G1 X1.0 Z7.0 F150.0
G1 X-1.0 Z-6.95 F150.0
;<Delay> 7200
;********** Lift Sequence **********
;********** Pre-Slice Start ********
;Set up any GCode here to be executed before a lift
M106 S25
;********** Pre-Slice End **********
;<Slice> 297 
;<Delay> 8000 
;<Slice> Blank 
;********** Lift Sequence ********
M107
G1 X1.0 Z7.0 F150.0
G1 X-1.0 Z-6.95 F150.0
;<Delay> 7200
;********** Lift Sequence **********
;********** Pre-Slice Start ********
;Set up any GCode here to be executed before a lift
M106 S25
;********** Pre-Slice End **********
;<Slice> 298 
;<Delay> 8000 
;<Slice> Blank 
;********** Lift Sequence ********
M107
G1 X1.0 Z7.0 F150.0
G1 X-1.0 Z-6.95 F150.0
;<Delay> 7200
;********** Lift Sequence **********
;********** Pre-Slice Start ********
;Set up any GCode here to be executed before a lift
M106 S25
;********** Pre-Slice End **********
;<Slice> 299 
;<Delay> 8000 
;<Slice> Blank 
;********** Lift Sequence ********
M107
G1 X1.0 Z7.0 F150.0
G1 X-1.0 Z-6.95 F150.0
;<Delay> 7200
;********** Lift Sequence **********
;********** Pre-Slice Start ********
;Set up any GCode here to be executed before a lift
M106 S25
;********** Pre-Slice End **********
;<Slice> 300 
;<Delay> 8000 
;<Slice> Blank 
;********** Lift Sequence ********
M107
G1 X1.0 Z7.0 F150.0
G1 X-1.0 Z-6.95 F150.0
;<Delay> 7200
;********** Lift Sequence **********
;********** Pre-Slice Start ********
;Set up any GCode here to be executed before a lift
M106 S25
;********** Pre-Slice End **********
;<Slice> 301 
;<Delay> 8000 
;<Slice> Blank 
